;FLAVOR:Marlin
;TIME:1868
;Filament used: 1.27944m
;Layer height: 0.2
;MINX:81.653
;MINY:81.657
;MINZ:0.2
;MAXX:153.343
;MAXY:153.347
;MAXZ:12
;TARGET_MACHINE.NAME:Creality Ender-3
;Generated with Cura_SteamEngine 5.6.0
M140 S50
M105
M190 S50
M104 S200
M105
M109 S200
M82 ;absolute extrusion mode
; Ender 3 Custom Start G-code
G92 E0 ; Reset Extruder
G28 ; Home all axes
G1 Z2.0 F3000 ; Move Z Axis up little to prevent scratching of Heat Bed
G1 X0.1 Y20 Z0.3 F5000.0 ; Move to start position
G1 X0.1 Y200.0 Z0.3 F1500.0 E15 ; Draw the first line
G1 X0.4 Y200.0 Z0.3 F5000.0 ; Move to side a little
G1 X0.4 Y20 Z0.3 F1500.0 E30 ; Draw the second line
G92 E0 ; Reset Extruder
G1 Z2.0 F3000 ; Move Z Axis up little to prevent scratching of Heat Bed
G1 X5 Y20 Z0.3 F5000.0 ; Move over to prevent blob squish
G92 E0
G92 E0
G1 F2700 E-5
;LAYER_COUNT:60
;LAYER:0
M107
G0 F6000 X92.437 Y91.871 Z0.2
;TYPE:SKIRT
G1 F2700 E0
G1 F1200 X92.823 Y91.499 E0.01783
G1 X93.672 Y90.726 E0.05602
G1 X94.455 Y90.043 E0.09058
G1 X94.924 Y89.658 E0.11076
G1 X96.182 Y88.682 E0.16372
G1 X96.703 Y88.302 E0.18516
G1 X97.781 Y87.568 E0.22854
G1 X98.433 Y87.143 E0.25443
G1 X98.917 Y86.845 E0.27333
G1 X100.127 Y86.149 E0.31976
G1 X101.015 Y85.669 E0.35333
G1 X101.497 Y85.423 E0.37133
G1 X102.276 Y85.05 E0.40006
G1 X103.425 Y84.532 E0.44198
G1 X103.923 Y84.323 E0.45994
G1 X104.715 Y84.014 E0.48822
G1 X105.564 Y83.698 E0.51835
G1 X106.461 Y83.394 E0.54985
G1 X107.458 Y83.093 E0.58449
G1 X108.467 Y82.81 E0.61934
G1 X109.056 Y82.663 E0.63953
G1 X110.594 Y82.327 E0.69189
G1 X111.058 Y82.236 E0.70762
G1 X111.788 Y82.113 E0.73224
G1 X113.227 Y81.908 E0.78059
G1 X114.026 Y81.82 E0.80732
G1 X115.868 Y81.689 E0.86874
G1 X116.498 Y81.666 E0.88971
G1 X117.644 Y81.657 E0.92783
G1 X118.976 Y81.683 E0.97214
G1 X119.596 Y81.714 E0.99278
G1 X121.15 Y81.84 E1.04464
G1 X121.814 Y81.911 E1.06685
G1 X123.292 Y82.128 E1.11654
G1 X124.261 Y82.297 E1.14925
G1 X124.834 Y82.412 E1.16869
G1 X126.364 Y82.766 E1.22092
G1 X126.967 Y82.926 E1.24167
G1 X128.304 Y83.324 E1.28807
G1 X129.351 Y83.667 E1.32471
G1 X130.043 Y83.921 E1.34923
G1 X131.385 Y84.453 E1.39725
G1 X131.998 Y84.712 E1.41938
G1 X133.256 Y85.306 E1.46565
G1 X134.136 Y85.747 E1.49839
G1 X134.62 Y86.005 E1.51663
G1 X135.605 Y86.566 E1.55433
G1 X136.444 Y87.067 E1.58684
G1 X136.907 Y87.36 E1.60506
G1 X137.762 Y87.933 E1.63929
G1 X138.702 Y88.592 E1.67747
G1 X139.301 Y89.046 E1.70247
G1 X140.433 Y89.95 E1.75066
G1 X140.957 Y90.391 E1.77344
G1 X142.373 Y91.689 E1.83733
G1 X142.821 Y92.125 E1.85812
G1 X143.631 Y92.966 E1.89695
G1 X144.507 Y93.928 E1.94023
G1 X144.904 Y94.393 E1.96056
G1 X146.154 Y95.955 E2.0271
G1 X146.503 Y96.432 E2.04676
G1 X147.004 Y97.148 E2.07583
G1 X147.676 Y98.15 E2.11595
G1 X147.962 Y98.603 E2.13377
G1 X148.542 Y99.58 E2.17156
G1 X149.042 Y100.466 E2.2054
G1 X149.323 Y101.001 E2.2255
G1 X150.013 Y102.406 E2.27756
G1 X150.27 Y102.972 E2.29824
G1 X150.836 Y104.333 E2.34726
G1 X151.199 Y105.278 E2.38093
G1 X151.399 Y105.846 E2.40096
G1 X151.888 Y107.373 E2.45429
G1 X152.065 Y107.996 E2.47583
G1 X152.406 Y109.357 E2.5225
G1 X152.643 Y110.432 E2.55911
G1 X152.757 Y111.028 E2.57929
G1 X152.999 Y112.529 E2.62986
G1 X153.063 Y112.994 E2.64547
G1 X153.143 Y113.699 E2.66907
G1 X153.227 Y114.616 E2.6997
G1 X153.296 Y115.554 E2.73098
G1 X153.321 Y116.105 E2.74932
G1 X153.343 Y117.33 E2.79007
G1 X153.339 Y118.31 E2.82267
G1 X153.318 Y118.912 E2.8427
G1 X153.221 Y120.487 E2.89519
G1 X153.163 Y121.129 E2.91663
G1 X152.989 Y122.532 E2.96365
G1 X152.896 Y123.184 E2.98556
G1 X152.791 Y123.81 E3.00667
G1 X152.398 Y125.686 E3.07042
G1 X152.22 Y126.423 E3.09564
G1 X151.69 Y128.271 E3.15958
G1 X151.505 Y128.842 E3.17954
G1 X151.001 Y130.244 E3.22909
G1 X150.632 Y131.189 E3.26284
G1 X150.426 Y131.677 E3.28045
G1 X149.961 Y132.702 E3.31789
G1 X149.545 Y133.567 E3.34981
G1 X149.306 Y134.035 E3.36729
G1 X148.819 Y134.932 E3.40124
G1 X148.423 Y135.633 E3.42802
G1 X148.136 Y136.114 E3.44665
G1 X147.54 Y137.052 E3.48361
G1 X146.823 Y138.12 E3.52639
G1 X146.51 Y138.558 E3.5443
G1 X145.795 Y139.503 E3.58371
G1 X145.189 Y140.266 E3.61612
G1 X144.857 Y140.663 E3.63333
G1 X144.134 Y141.486 E3.66977
G1 X143.443 Y142.238 E3.70374
G1 X143.079 Y142.615 E3.72117
G1 X142.502 Y143.184 E3.74812
G1 X141.568 Y144.066 E3.79085
G1 X141.08 Y144.498 E3.81252
G1 X139.875 Y145.504 E3.86473
G1 X139.108 Y146.103 E3.8971
G1 X138.227 Y146.742 E3.9333
G1 X137.396 Y147.318 E3.96693
G1 X136.955 Y147.608 E3.98448
G1 X136.02 Y148.188 E4.02108
G1 X135.115 Y148.72 E4.056
G1 X134.583 Y149.014 E4.07621
G1 X133.197 Y149.727 E4.12805
G1 X132.618 Y150.004 E4.1494
G1 X131.248 Y150.602 E4.19912
G1 X130.35 Y150.965 E4.23134
G1 X129.836 Y151.158 E4.2496
G1 X128.81 Y151.512 E4.2857
G1 X127.843 Y151.823 E4.31948
G1 X127.331 Y151.973 E4.33723
G1 X126.285 Y152.25 E4.37321
G1 X125.298 Y152.489 E4.40699
G1 X124.757 Y152.605 E4.42539
G1 X123.629 Y152.815 E4.46356
G1 X122.627 Y152.977 E4.49732
G1 X122.034 Y153.058 E4.51722
G1 X120.438 Y153.226 E4.5706
G1 X119.809 Y153.273 E4.59158
G1 X118.43 Y153.331 E4.63748
G1 X117.36 Y153.347 E4.67308
G1 X116.75 Y153.339 E4.69337
G1 X115.186 Y153.272 E4.74543
G1 X114.55 Y153.226 E4.76664
G1 X113.113 Y153.073 E4.81471
G1 X112.13 Y152.942 E4.84769
G1 X111.609 Y152.859 E4.86524
G1 X110.749 Y152.701 E4.89432
G1 X109.845 Y152.521 E4.92498
G1 X109.281 Y152.393 E4.94421
G1 X107.889 Y152.03 E4.99206
G1 X106.948 Y151.759 E5.02463
G1 X106.441 Y151.599 E5.04231
G1 X105.339 Y151.217 E5.0811
G1 X104.447 Y150.887 E5.11274
G1 X103.937 Y150.683 E5.13101
G1 X102.898 Y150.235 E5.16864
G1 X102 Y149.823 E5.2015
G1 X101.525 Y149.591 E5.21908
G1 X100.727 Y149.177 E5.24898
G1 X99.674 Y148.6 E5.28892
G1 X99.226 Y148.339 E5.30616
G1 X98.314 Y147.777 E5.34179
G1 X97.353 Y147.153 E5.3799
G1 X96.691 Y146.686 E5.40685
G1 X95.58 Y145.863 E5.45284
G1 X94.851 Y145.286 E5.48376
G1 X94.016 Y144.577 E5.52019
G1 X93.294 Y143.941 E5.55219
G1 X92.891 Y143.568 E5.57046
G1 X92.13 Y142.822 E5.6059
G1 X91.59 Y142.273 E5.63151
G1 X91.047 Y141.694 E5.65792
G1 X89.904 Y140.379 E5.71587
G1 X89.391 Y139.748 E5.74291
G1 X88.268 Y138.247 E5.80526
G1 X87.917 Y137.745 E5.82564
G1 X87.175 Y136.609 E5.87077
G1 X86.799 Y136.009 E5.89432
G1 X86.527 Y135.546 E5.91218
G1 X85.832 Y134.289 E5.95995
G1 X85.369 Y133.397 E5.99338
G1 X85.123 Y132.889 E6.01215
G1 X84.658 Y131.857 E6.0498
G1 X84.283 Y130.98 E6.08152
G1 X84.086 Y130.483 E6.0993
G1 X83.687 Y129.393 E6.13791
G1 X83.367 Y128.456 E6.17084
G1 X83.204 Y127.934 E6.18903
G1 X82.973 Y127.121 E6.21714
G1 X82.637 Y125.837 E6.26128
G1 X82.503 Y125.248 E6.28137
G1 X82.204 Y123.751 E6.33215
G1 X82.078 Y123.022 E6.35675
G1 X81.837 Y121.116 E6.42065
G1 X81.779 Y120.492 E6.4415
G1 X81.69 Y119.074 E6.48875
G1 X81.663 Y118.377 E6.51195
G1 X81.653 Y117.439 E6.54315
G1 X81.674 Y116.374 E6.57858
G1 X81.712 Y115.436 E6.6098
G1 X81.748 Y114.885 E6.62817
G1 X81.859 Y113.713 E6.66733
G1 X81.973 Y112.728 E6.70031
G1 X82.045 Y112.205 E6.71786
G1 X82.192 Y111.332 E6.74731
G1 X82.401 Y110.211 E6.78524
G1 X82.516 Y109.675 E6.80347
G1 X82.776 Y108.614 E6.8398
G1 X83.051 Y107.586 E6.8752
G1 X83.207 Y107.062 E6.89338
G1 X83.543 Y106.024 E6.92967
G1 X83.869 Y105.09 E6.96257
G1 X84.06 Y104.587 E6.98047
G1 X84.5 Y103.508 E7.01922
G1 X84.926 Y102.534 E7.05458
G1 X85.179 Y102.001 E7.07421
G1 X85.873 Y100.625 E7.12546
G1 X86.177 Y100.067 E7.1466
G1 X86.723 Y99.132 E7.18261
G1 X87.429 Y97.987 E7.22735
G1 X87.741 Y97.513 E7.24622
G1 X88.406 Y96.564 E7.28477
G1 X88.979 Y95.784 E7.31696
G1 X89.307 Y95.361 E7.33476
G1 X89.841 Y94.704 E7.36292
G1 X90.628 Y93.776 E7.40339
G1 X90.994 Y93.365 E7.42169
G1 X91.77 Y92.545 E7.45924
G1 X92.437 Y91.871 E7.49078
G0 F6000 X92.714 Y92.159
G1 F1200 X93.092 Y91.795 E7.50824
G1 X93.935 Y91.027 E7.54617
G1 X94.709 Y90.352 E7.58032
G1 X95.169 Y89.974 E7.60013
G1 X96.418 Y89.005 E7.6527
G1 X96.928 Y88.633 E7.6737
G1 X98 Y87.903 E7.71684
G1 X98.642 Y87.484 E7.74233
G1 X99.117 Y87.192 E7.76088
G1 X100.317 Y86.501 E7.80694
G1 X101.197 Y86.025 E7.84021
G1 X101.67 Y85.784 E7.85787
G1 X102.441 Y85.415 E7.8863
G1 X103.58 Y84.901 E7.92786
G1 X104.068 Y84.696 E7.94546
G1 X104.855 Y84.389 E7.97356
G1 X105.692 Y84.077 E8.00327
G1 X106.577 Y83.777 E8.03435
G1 X107.566 Y83.478 E8.06872
G1 X108.564 Y83.198 E8.10319
G1 X109.142 Y83.054 E8.123
G1 X110.671 Y82.719 E8.17507
G1 X111.124 Y82.63 E8.19042
G1 X111.844 Y82.509 E8.2147
G1 X113.271 Y82.306 E8.26264
G1 X114.054 Y82.219 E8.28885
G1 X115.883 Y82.089 E8.34983
G1 X116.501 Y82.066 E8.3704
G1 X117.636 Y82.057 E8.40815
G1 X118.956 Y82.082 E8.45206
G1 X119.564 Y82.113 E8.47231
G1 X121.108 Y82.238 E8.52383
G1 X121.756 Y82.307 E8.54551
G1 X123.223 Y82.522 E8.59482
G1 X124.182 Y82.689 E8.6272
G1 X124.744 Y82.802 E8.64627
G1 X126.261 Y83.153 E8.69805
G1 X126.864 Y83.313 E8.7188
G1 X128.18 Y83.704 E8.76446
G1 X129.213 Y84.042 E8.80062
G1 X129.896 Y84.293 E8.82482
G1 X131.229 Y84.821 E8.8725
G1 X131.827 Y85.074 E8.8941
G1 X133.077 Y85.664 E8.94007
G1 X133.948 Y86.1 E8.97247
G1 X134.422 Y86.352 E8.99033
G1 X135.4 Y86.91 E9.02778
G1 X136.23 Y87.405 E9.05992
G1 X136.684 Y87.692 E9.07778
G1 X137.532 Y88.26 E9.11173
G1 X138.46 Y88.911 E9.14943
G1 X139.051 Y89.359 E9.1741
G1 X140.183 Y90.263 E9.22228
G1 X140.687 Y90.686 E9.24417
G1 X142.094 Y91.975 E9.30763
G1 X142.533 Y92.403 E9.32802
G1 X143.335 Y93.235 E9.36646
G1 X144.203 Y94.188 E9.40933
G1 X144.592 Y94.643 E9.42924
G1 X145.831 Y96.191 E9.49519
G1 X146.175 Y96.661 E9.51456
G1 X146.672 Y97.371 E9.54339
G1 X147.338 Y98.364 E9.58316
G1 X147.618 Y98.807 E9.60059
G1 X148.194 Y99.777 E9.63811
G1 X148.688 Y100.652 E9.67153
G1 X148.964 Y101.177 E9.69126
G1 X149.649 Y102.571 E9.74292
G1 X149.901 Y103.126 E9.76319
G1 X150.463 Y104.476 E9.81183
G1 X150.822 Y105.411 E9.84514
G1 X151.018 Y105.968 E9.86478
G1 X151.503 Y107.483 E9.91769
G1 X151.677 Y108.093 E9.93878
G1 X152.015 Y109.443 E9.98507
G1 X152.25 Y110.507 E10.02131
G1 X152.362 Y111.092 E10.04112
G1 X152.603 Y112.584 E10.09139
G1 X152.666 Y113.039 E10.10667
G1 X152.745 Y113.735 E10.12997
G1 X152.828 Y114.645 E10.16036
G1 X152.896 Y115.573 E10.19131
G1 X152.921 Y116.112 E10.20925
G1 X152.943 Y117.328 E10.2497
G1 X152.939 Y118.296 E10.2819
G1 X152.919 Y118.887 E10.30157
G1 X152.823 Y120.451 E10.35369
G1 X152.766 Y121.08 E10.37469
G1 X152.593 Y122.475 E10.42145
G1 X152.501 Y123.118 E10.44305
G1 X152.399 Y123.728 E10.46362
G1 X152.009 Y125.592 E10.52696
G1 X151.835 Y126.313 E10.55163
G1 X151.309 Y128.148 E10.61512
G1 X151.124 Y128.719 E10.63508
G1 X150.629 Y130.098 E10.68381
G1 X150.263 Y131.033 E10.71721
G1 X150.057 Y131.521 E10.73483
G1 X149.6 Y132.529 E10.77164
G1 X149.189 Y133.385 E10.80322
G1 X148.955 Y133.844 E10.82036
G1 X148.471 Y134.735 E10.85408
G1 X148.08 Y135.428 E10.88055
G1 X147.798 Y135.9 E10.89883
G1 X147.208 Y136.829 E10.93544
G1 X146.497 Y137.888 E10.97786
G1 X146.191 Y138.317 E10.99539
G1 X145.482 Y139.254 E11.03447
G1 X144.882 Y140.01 E11.06657
G1 X144.557 Y140.399 E11.08343
G1 X143.84 Y141.215 E11.11956
G1 X143.155 Y141.96 E11.15322
G1 X142.798 Y142.33 E11.17032
G1 X142.227 Y142.893 E11.19699
G1 X141.293 Y143.775 E11.23972
G1 X140.824 Y144.191 E11.26057
G1 X139.629 Y145.189 E11.31235
G1 X138.873 Y145.779 E11.34425
G1 X137.999 Y146.413 E11.38016
G1 X137.176 Y146.984 E11.41348
G1 X136.744 Y147.268 E11.43067
G1 X135.817 Y147.843 E11.46695
G1 X134.922 Y148.37 E11.5015
G1 X134.4 Y148.658 E11.52133
G1 X133.025 Y149.366 E11.57277
G1 X132.458 Y149.637 E11.59367
G1 X131.098 Y150.231 E11.64303
G1 X130.209 Y150.591 E11.67493
G1 X129.706 Y150.78 E11.6928
G1 X128.688 Y151.131 E11.72862
G1 X127.73 Y151.439 E11.76209
G1 X127.229 Y151.586 E11.77945
G1 X126.191 Y151.861 E11.81517
G1 X125.214 Y152.098 E11.8486
G1 X124.684 Y152.212 E11.86663
G1 X123.565 Y152.42 E11.90449
G1 X122.573 Y152.581 E11.93792
G1 X121.992 Y152.66 E11.95742
G1 X120.408 Y152.827 E12.01039
G1 X119.792 Y152.873 E12.03094
G1 X118.424 Y152.931 E12.07648
G1 X117.365 Y152.947 E12.11171
G1 X116.767 Y152.939 E12.1316
G1 X115.215 Y152.873 E12.18326
G1 X114.592 Y152.828 E12.20404
G1 X113.166 Y152.677 E12.25173
G1 X112.193 Y152.547 E12.28438
G1 X111.681 Y152.466 E12.30162
G1 X110.827 Y152.309 E12.3305
G1 X109.933 Y152.131 E12.36082
G1 X109.382 Y152.006 E12.37961
G1 X108 Y151.646 E12.42711
G1 X107.068 Y151.377 E12.45938
G1 X106.572 Y151.221 E12.47667
G1 X105.478 Y150.842 E12.51518
G1 X104.586 Y150.512 E12.54681
G1 X104.096 Y150.316 E12.56437
G1 X103.065 Y149.871 E12.60171
G1 X102.175 Y149.463 E12.63428
G1 X101.709 Y149.236 E12.65152
G1 X100.919 Y148.826 E12.68112
G1 X99.876 Y148.255 E12.72067
G1 X99.436 Y147.998 E12.73762
G1 X98.532 Y147.441 E12.77294
G1 X97.584 Y146.826 E12.81052
G1 X96.929 Y146.364 E12.83718
G1 X95.828 Y145.549 E12.88274
G1 X95.11 Y144.981 E12.91319
G1 X94.28 Y144.277 E12.94939
G1 X93.566 Y143.648 E12.98104
G1 X93.171 Y143.282 E12.99895
G1 X92.415 Y142.541 E13.03416
G1 X91.882 Y142 E13.05942
G1 X91.349 Y141.431 E13.08535
G1 X90.214 Y140.126 E13.14287
G1 X89.711 Y139.508 E13.16937
G1 X88.596 Y138.018 E13.23127
G1 X88.252 Y137.526 E13.25124
G1 X87.514 Y136.397 E13.2961
G1 X87.144 Y135.806 E13.31929
G1 X86.877 Y135.352 E13.33681
G1 X86.187 Y134.105 E13.38421
G1 X85.729 Y133.222 E13.41729
G1 X85.488 Y132.725 E13.43567
G1 X85.026 Y131.7 E13.47306
G1 X84.655 Y130.832 E13.50446
G1 X84.462 Y130.346 E13.52185
G1 X84.066 Y129.264 E13.56017
G1 X83.749 Y128.336 E13.59279
G1 X83.589 Y127.825 E13.6106
G1 X83.36 Y127.02 E13.63843
G1 X83.027 Y125.748 E13.68217
G1 X82.895 Y125.17 E13.70189
G1 X82.598 Y123.683 E13.75232
G1 X82.475 Y122.972 E13.77632
G1 X82.235 Y121.079 E13.83978
G1 X82.178 Y120.467 E13.86023
G1 X82.09 Y119.058 E13.90718
G1 X82.063 Y118.373 E13.92998
G1 X82.053 Y117.447 E13.96078
G1 X82.074 Y116.39 E13.99595
G1 X82.111 Y115.462 E14.02684
G1 X82.146 Y114.923 E14.0448
G1 X82.256 Y113.759 E14.08369
G1 X82.369 Y112.783 E14.11637
G1 X82.44 Y112.271 E14.13356
G1 X82.585 Y111.405 E14.16276
G1 X82.792 Y110.295 E14.20032
G1 X82.905 Y109.77 E14.21818
G1 X83.165 Y108.709 E14.25451
G1 X83.435 Y107.699 E14.28929
G1 X83.587 Y107.185 E14.30711
G1 X83.921 Y106.156 E14.3431
G1 X84.243 Y105.232 E14.37564
G1 X84.43 Y104.738 E14.39321
G1 X84.867 Y103.668 E14.43165
G1 X85.288 Y102.705 E14.46661
G1 X85.536 Y102.181 E14.48589
G1 X86.225 Y100.816 E14.53675
G1 X86.522 Y100.269 E14.55745
G1 X87.063 Y99.342 E14.59315
G1 X87.763 Y98.207 E14.6375
G1 X88.068 Y97.743 E14.65597
G1 X88.729 Y96.801 E14.69424
G1 X89.295 Y96.029 E14.72608
G1 X89.617 Y95.613 E14.74358
G1 X90.146 Y94.963 E14.77145
G1 X90.926 Y94.042 E14.81159
G1 X91.285 Y93.64 E14.82952
G1 X92.055 Y92.826 E14.86679
G1 X92.714 Y92.159 E14.89797
G0 F6000 X92.991 Y92.447
G1 F1200 X93.361 Y92.091 E14.91505
G1 X94.198 Y91.328 E14.95272
G1 X94.963 Y90.661 E14.98648
G1 X95.414 Y90.29 E15.0059
G1 X96.654 Y89.328 E15.0581
G1 X97.153 Y88.964 E15.07864
G1 X98.219 Y88.238 E15.12154
G1 X98.851 Y87.825 E15.14665
G1 X99.317 Y87.539 E15.16484
G1 X100.508 Y86.853 E15.21055
G1 X101.379 Y86.381 E15.2435
G1 X101.842 Y86.145 E15.26079
G1 X102.606 Y85.78 E15.28895
G1 X103.735 Y85.27 E15.33015
G1 X104.213 Y85.069 E15.3474
G1 X104.995 Y84.764 E15.37532
G1 X105.821 Y84.456 E15.40464
G1 X106.693 Y84.16 E15.43526
G1 X107.674 Y83.863 E15.46936
G1 X108.661 Y83.586 E15.50345
G1 X109.228 Y83.445 E15.52288
G1 X110.748 Y83.111 E15.57465
G1 X111.19 Y83.024 E15.58963
G1 X111.9 Y82.905 E15.61357
G1 X113.316 Y82.704 E15.66114
G1 X114.082 Y82.618 E15.68678
G1 X115.898 Y82.489 E15.74733
G1 X116.504 Y82.466 E15.7675
G1 X117.629 Y82.457 E15.80492
G1 X118.935 Y82.481 E15.84837
G1 X119.532 Y82.512 E15.86825
G1 X121.066 Y82.636 E15.91944
G1 X121.698 Y82.703 E15.94057
G1 X123.154 Y82.916 E15.98952
G1 X124.103 Y83.081 E16.02155
G1 X124.654 Y83.192 E16.04025
G1 X126.159 Y83.54 E16.09163
G1 X126.75 Y83.696 E16.11196
G1 X128.056 Y84.084 E16.15727
G1 X129.075 Y84.417 E16.19293
G1 X129.749 Y84.665 E16.21681
G1 X131.073 Y85.189 E16.26417
G1 X131.656 Y85.436 E16.28523
G1 X132.906 Y86.026 E16.3312
G1 X133.76 Y86.453 E16.36296
G1 X134.224 Y86.7 E16.38044
G1 X135.195 Y87.253 E16.41761
G1 X136.016 Y87.743 E16.44941
G1 X136.461 Y88.024 E16.46692
