;FLAVOR:Marlin
;TIME:4138
;Filament used: 2.18431m
;Layer height: 0.2
;MINX:71.702
;MINY:71.931
;MINZ:0.2
;MAXX:163.399
;MAXY:163.393
;MAXZ:19.6
;TARGET_MACHINE.NAME:Creality Ender-3
;Generated with Cura_SteamEngine 5.6.0
M140 S50
M105
M190 S50
M104 S200
M105
M109 S200
M82 ;absolute extrusion mode
; Ender 3 Custom Start G-code
G92 E0 ; Reset Extruder
G28 ; Home all axes
G1 Z2.0 F3000 ; Move Z Axis up little to prevent scratching of Heat Bed
G1 X0.1 Y20 Z0.3 F5000.0 ; Move to start position
G1 X0.1 Y200.0 Z0.3 F1500.0 E15 ; Draw the first line
G1 X0.4 Y200.0 Z0.3 F5000.0 ; Move to side a little
G1 X0.4 Y20 Z0.3 F1500.0 E30 ; Draw the second line
G92 E0 ; Reset Extruder
G1 Z2.0 F3000 ; Move Z Axis up little to prevent scratching of Heat Bed
G1 X5 Y20 Z0.3 F5000.0 ; Move over to prevent blob squish
G92 E0
G92 E0
G1 F2700 E-5
;LAYER_COUNT:98
;LAYER:0
M107
G0 F6000 X84.225 Y85.974 Z0.2
;TYPE:SKIRT
G1 F2700 E0
G1 F1200 X84.947 Y85.294 E0.03299
G1 X85.655 Y84.733 E0.06303
G1 X86.166 Y84.383 E0.08363
G1 X86.816 Y83.964 E0.10935
G1 X88.101 Y83.164 E0.1597
G1 X90.167 Y81.795 E0.24213
G1 X92.248 Y80.328 E0.32682
G1 X94.249 Y78.832 E0.40991
G1 X96.364 Y77.159 E0.4996
G1 X97.161 Y76.588 E0.53221
G1 X98.145 Y76.016 E0.57007
G1 X100.245 Y74.939 E0.64857
G1 X101.066 Y74.563 E0.6786
G1 X102.178 Y74.176 E0.71776
G1 X103.392 Y73.825 E0.75979
G1 X104.279 Y73.587 E0.79034
G1 X105.23 Y73.382 E0.8227
G1 X106.126 Y73.267 E0.85274
G1 X106.857 Y73.228 E0.87709
G1 X109.619 Y73.174 E0.96897
G1 X112.139 Y73.053 E1.05288
G1 X114.638 Y72.863 E1.13624
G1 X117.158 Y72.6 E1.22051
G1 X119.65 Y72.265 E1.30414
G1 X121.14 Y72.042 E1.35425
G1 X122.108 Y71.944 E1.38661
G1 X123.082 Y71.931 E1.41901
G1 X124.052 Y72.004 E1.45136
G1 X124.944 Y72.148 E1.48141
G1 X125.561 Y72.294 E1.5025
G1 X127.079 Y72.7 E1.55477
G1 X127.762 Y72.903 E1.57846
G1 X128.668 Y73.217 E1.61036
G1 X129.184 Y73.437 E1.62901
G1 X130.365 Y73.977 E1.67221
G1 X132.764 Y75.034 E1.7594
G1 X135.116 Y75.991 E1.84385
G1 X137.42 Y76.854 E1.92568
G1 X140.269 Y77.828 E2.02583
G1 X141.19 Y78.192 E2.05877
G1 X142.061 Y78.629 E2.09118
G1 X142.889 Y79.141 E2.12356
G1 X143.614 Y79.68 E2.1536
G1 X144.098 Y80.094 E2.17479
G1 X144.628 Y80.579 E2.19868
G1 X145.797 Y81.677 E2.25202
G1 X147.663 Y83.333 E2.335
G1 X150.011 Y85.296 E2.43679
G1 X150.947 Y86.16 E2.47916
G1 X151.996 Y87.251 E2.5295
G1 X152.503 Y87.805 E2.55448
G1 X153.126 Y88.553 E2.58686
G1 X153.664 Y89.329 E2.61826
G1 X154.288 Y90.453 E2.66102
G1 X155.503 Y92.988 E2.75452
G1 X156.662 Y95.234 E2.83858
G1 X157.874 Y97.43 E2.92201
G1 X159.141 Y99.575 E3.00487
G1 X159.671 Y100.421 E3.03807
G1 X160.17 Y101.244 E3.07008
G1 X160.619 Y102.067 E3.10126
G1 X161.021 Y102.985 E3.1346
G1 X161.252 Y103.654 E3.15814
G1 X161.497 Y104.45 E3.18584
G1 X161.863 Y105.751 E3.23079
G1 X162.11 Y106.848 E3.26819
G1 X162.57 Y109.535 E3.35886
G1 X163.188 Y112.587 E3.46243
G1 X163.337 Y113.55 E3.49484
G1 X163.399 Y114.521 E3.5272
G1 X163.376 Y115.489 E3.5594
G1 X163.295 Y116.266 E3.58539
G1 X162.969 Y118.588 E3.66337
G1 X162.692 Y121.049 E3.74575
G1 X162.472 Y123.617 E3.83147
G1 X162.309 Y126.639 E3.93213
G1 X162.223 Y127.607 E3.96445
G1 X162.066 Y128.497 E3.99451
G1 X161.938 Y129.023 E4.01251
G1 X161.536 Y130.489 E4.06307
G1 X161.332 Y131.175 E4.08688
G1 X161.011 Y132.094 E4.11926
G1 X160.615 Y132.971 E4.15126
G1 X158.818 Y136.255 E4.27577
G1 X157.683 Y138.483 E4.35893
G1 X156.588 Y140.795 E4.44402
G1 X155.712 Y142.766 E4.51576
G1 X155.276 Y143.639 E4.54822
G1 X154.783 Y144.437 E4.57941
G1 X154.179 Y145.247 E4.61302
G1 X153.526 Y145.976 E4.64557
G1 X152.476 Y147.041 E4.69531
G1 X151.778 Y147.713 E4.72754
G1 X151.271 Y148.181 E4.75049
G1 X149.397 Y149.952 E4.83625
G1 X147.457 Y151.895 E4.92757
G1 X146.336 Y153.047 E4.98103
G1 X145.498 Y153.871 E5.02012
G1 X144.795 Y154.502 E5.05154
G1 X143.778 Y155.246 E5.09345
G1 X142.79 Y155.884 E5.13257
G1 X142.04 Y156.383 E5.16253
G1 X141.137 Y156.964 E5.19824
G1 X140.294 Y157.451 E5.23062
G1 X139.44 Y157.849 E5.26196
G1 X138.408 Y158.218 E5.29841
G1 X137.633 Y158.449 E5.32531
G1 X133.904 Y159.485 E5.45404
G1 X131.539 Y160.219 E5.5364
G1 X129.105 Y161.049 E5.62193
G1 X126.143 Y162.162 E5.72717
G1 X125.409 Y162.41 E5.75294
G1 X124.404 Y162.705 E5.78778
G1 X123.234 Y163.02 E5.82808
G1 X122.283 Y163.231 E5.86048
G1 X121.316 Y163.355 E5.8929
G1 X120.343 Y163.393 E5.92529
G1 X119.441 Y163.351 E5.95532
G1 X118.444 Y163.219 E5.98877
G1 X115.966 Y162.769 E6.07254
G1 X113.496 Y162.393 E6.15564
G1 X111.016 Y162.086 E6.23875
G1 X108.468 Y161.842 E6.32389
G1 X106.202 Y161.683 E6.39944
G1 X105.234 Y161.571 E6.43185
G1 X104.309 Y161.379 E6.46327
G1 X103.625 Y161.195 E6.48683
G1 X102.06 Y160.73 E6.54113
G1 X101.142 Y160.408 E6.57349
G1 X100.254 Y160.007 E6.6059
G1 X99.446 Y159.553 E6.63672
G1 X98.845 Y159.182 E6.66021
G1 X96.676 Y157.886 E6.74425
G1 X94.424 Y156.625 E6.8301
G1 X92.153 Y155.437 E6.91534
G1 X91.133 Y154.921 E6.95336
G1 X90.286 Y154.44 E6.98576
G1 X89.472 Y153.877 E7.01868
G1 X88.409 Y152.96 E7.06537
G1 X87.448 Y152.012 E7.11027
G1 X86.801 Y151.348 E7.1411
G1 X86.137 Y150.594 E7.17452
G1 X84.755 Y148.87 E7.24801
G1 X83.113 Y146.922 E7.33275
G1 X81.448 Y145.059 E7.41585
G1 X79.394 Y142.891 E7.51518
G1 X78.78 Y142.181 E7.5464
G1 X78.19 Y141.362 E7.57997
G1 X77.694 Y140.523 E7.61239
G1 X77.275 Y139.643 E7.64481
G1 X76.924 Y138.7 E7.67827
G1 X76.785 Y138.266 E7.69343
G1 X75.829 Y135.02 E7.80598
G1 X75.051 Y132.616 E7.89002
G1 X74.219 Y130.275 E7.97265
G1 X72.967 Y127.056 E8.08753
G1 X72.774 Y126.52 E8.10648
G1 X72.587 Y125.935 E8.1269
G1 X72.276 Y124.878 E8.16355
G1 X72.089 Y124.194 E8.18713
G1 X71.876 Y123.245 E8.21948
G1 X71.745 Y122.279 E8.25191
G1 X71.702 Y121.308 E8.28423
G1 X71.739 Y120.405 E8.31429
G1 X71.83 Y119.633 E8.34015
G1 X72.004 Y118.501 E8.37824
G1 X72.35 Y116.013 E8.46179
G1 X72.629 Y113.486 E8.54635
G1 X72.837 Y110.989 E8.62969
G1 X72.972 Y108.45 E8.71425
G1 X73.018 Y107.351 E8.75084
G1 X73.106 Y106.365 E8.78376
G1 X73.274 Y105.417 E8.81578
G1 X73.419 Y104.843 E8.83548
G1 X73.816 Y103.444 E8.88384
G1 X74.229 Y102.115 E8.93013
G1 X74.561 Y101.199 E8.96254
G1 X74.958 Y100.345 E8.99386
G1 X75.52 Y99.381 E9.03097
G1 X76.007 Y98.637 E9.06055
G1 X77.415 Y96.418 E9.14796
G1 X78.698 Y94.266 E9.23129
G1 X79.945 Y92.033 E9.31635
G1 X81.056 Y89.908 E9.39611
G1 X81.529 Y89.097 E9.42734
G1 X82.111 Y88.276 E9.46081
G1 X82.684 Y87.597 E9.49036
G1 X83.297 Y86.935 E9.52037
G1 X84.225 Y85.974 E9.5648
G0 F6000 X84.5 Y86.265
G1 F1200 X85.195 Y85.608 E9.59661
G1 X85.903 Y85.047 E9.62665
G1 X86.383 Y84.719 E9.64599
G1 X87.027 Y84.304 E9.67147
G1 X88.312 Y83.504 E9.72182
G1 X90.388 Y82.128 E9.80465
G1 X92.488 Y80.648 E9.8901
G1 X94.489 Y79.152 E9.9732
G1 X96.597 Y77.484 E10.06261
G1 X97.362 Y76.934 E10.09394
G1 X98.327 Y76.372 E10.13109
G1 X100.412 Y75.303 E10.20902
G1 X101.233 Y74.927 E10.23905
G1 X102.289 Y74.56 E10.27624
G1 X103.496 Y74.211 E10.31803
G1 X104.364 Y73.978 E10.34792
G1 X105.281 Y73.779 E10.37913
G1 X106.177 Y73.664 E10.40917
G1 X106.865 Y73.628 E10.43209
G1 X109.638 Y73.574 E10.52433
G1 X112.158 Y73.453 E10.60825
G1 X114.677 Y73.261 E10.69227
G1 X117.2 Y72.997 E10.77664
G1 X119.709 Y72.661 E10.86084
G1 X121.181 Y72.44 E10.91035
G1 X122.114 Y72.344 E10.94154
G1 X123.053 Y72.33 E10.97278
G1 X123.988 Y72.399 E11.00396
G1 X124.88 Y72.543 E11.03401
G1 X125.458 Y72.68 E11.05377
G1 X126.965 Y73.083 E11.10565
G1 X127.631 Y73.281 E11.12876
G1 X128.511 Y73.585 E11.15973
G1 X129.018 Y73.801 E11.17806
G1 X130.199 Y74.341 E11.22125
G1 X132.613 Y75.405 E11.30899
G1 X134.965 Y76.362 E11.39345
G1 X137.291 Y77.233 E11.47606
G1 X140.122 Y78.2 E11.57556
G1 X141.011 Y78.55 E11.60734
G1 X141.851 Y78.97 E11.63857
G1 X142.65 Y79.462 E11.66978
G1 X143.375 Y80.001 E11.69983
G1 X143.828 Y80.389 E11.71967
G1 X144.354 Y80.87 E11.74337
G1 X145.531 Y81.976 E11.79709
G1 X147.397 Y83.632 E11.88007
G1 X149.74 Y85.59 E11.98163
G1 X150.659 Y86.437 E12.0232
G1 X151.701 Y87.521 E12.07321
G1 X152.196 Y88.061 E12.09757
G1 X152.797 Y88.781 E12.12877
G1 X153.335 Y89.557 E12.16017
G1 X153.927 Y90.626 E12.20081
G1 X155.142 Y93.161 E12.29431
G1 X156.312 Y95.427 E12.37913
G1 X157.53 Y97.633 E12.46295
G1 X158.802 Y99.788 E12.54618
G1 X159.329 Y100.628 E12.57916
G1 X159.819 Y101.436 E12.61059
G1 X160.268 Y102.259 E12.64177
G1 X160.643 Y103.116 E12.67288
G1 X160.87 Y103.772 E12.69597
G1 X161.112 Y104.559 E12.72336
G1 X161.473 Y105.839 E12.76759
G1 X161.716 Y106.915 E12.80428
G1 X162.178 Y109.614 E12.89535
G1 X162.793 Y112.649 E12.99835
G1 X162.938 Y113.576 E13.02956
G1 X162.999 Y114.512 E13.06076
G1 X162.978 Y115.448 E13.09189
G1 X162.899 Y116.21 E13.11737
G1 X162.573 Y118.532 E13.19536
G1 X162.293 Y121.015 E13.27847
G1 X162.074 Y123.583 E13.36419
G1 X161.911 Y126.604 E13.46482
G1 X161.829 Y127.538 E13.496
G1 X161.672 Y128.428 E13.52606
G1 X161.552 Y128.917 E13.54281
G1 X161.153 Y130.375 E13.59308
G1 X160.954 Y131.044 E13.6163
G1 X160.646 Y131.93 E13.6475
G1 X160.264 Y132.779 E13.67846
G1 X158.467 Y136.063 E13.80297
G1 X157.321 Y138.312 E13.88692
G1 X156.226 Y140.624 E13.97201
G1 X155.354 Y142.588 E14.04348
G1 X154.935 Y143.429 E14.07473
G1 X154.462 Y144.198 E14.10476
G1 X153.881 Y144.98 E14.13716
G1 X153.241 Y145.695 E14.16908
G1 X152.199 Y146.753 E14.21847
G1 X151.507 Y147.419 E14.25041
G1 X150.996 Y147.89 E14.27353
G1 X149.122 Y149.661 E14.35929
G1 X147.174 Y151.612 E14.45099
G1 X146.056 Y152.762 E14.50433
G1 X145.231 Y153.573 E14.54281
G1 X144.528 Y154.204 E14.57423
G1 X143.561 Y154.91 E14.61405
G1 X142.573 Y155.548 E14.65317
G1 X141.823 Y156.047 E14.68313
G1 X140.936 Y156.618 E14.71822
G1 X140.125 Y157.088 E14.74939
G1 X139.271 Y157.486 E14.78073
G1 X138.274 Y157.841 E14.81593
G1 X137.526 Y158.064 E14.84189
G1 X133.785 Y159.103 E14.97102
G1 X131.41 Y159.84 E15.05373
G1 X128.976 Y160.67 E15.13927
G1 X126.002 Y161.788 E15.24494
G1 X125.296 Y162.026 E15.26972
G1 X124.3 Y162.319 E15.30425
G1 X123.147 Y162.63 E15.34397
G1 X122.231 Y162.834 E15.37518
G1 X121.3 Y162.955 E15.40641
G1 X120.362 Y162.993 E15.43763
G1 X119.46 Y162.951 E15.46767
G1 X118.515 Y162.825 E15.49937
G1 X116.037 Y162.376 E15.58314
G1 X113.545 Y161.996 E15.66698
G1 X111.065 Y161.689 E15.75009
G1 X108.496 Y161.443 E15.83593
G1 X106.248 Y161.286 E15.91088
G1 X105.315 Y161.179 E15.94211
G1 X104.39 Y160.987 E15.97354
G1 X103.739 Y160.812 E15.99596
G1 X102.192 Y160.352 E16.04964
G1 X101.306 Y160.043 E16.08085
G1 X100.45 Y159.658 E16.11206
G1 X99.656 Y159.213 E16.14234
G1 X99.055 Y158.842 E16.16583
G1 X96.871 Y157.537 E16.25045
G1 X94.619 Y156.276 E16.33629
G1 X92.333 Y155.08 E16.4221
G1 X91.33 Y154.573 E16.45948
G1 X90.513 Y154.111 E16.4907
G1 X89.733 Y153.574 E16.5222
G1 X88.69 Y152.675 E16.568
G1 X87.734 Y151.733 E16.61263
G1 X87.101 Y151.084 E16.64279
G1 X86.449 Y150.344 E16.67559
G1 X85.061 Y148.612 E16.74941
G1 X83.419 Y146.664 E16.83415
G1 X81.746 Y144.792 E16.91765
G1 X79.697 Y142.629 E17.01675
G1 X79.083 Y141.919 E17.04797
G1 X78.534 Y141.158 E17.07918
G1 X78.055 Y140.35 E17.11042
G1 X77.65 Y139.503 E17.14165
G1 X77.305 Y138.578 E17.17448
G1 X77.169 Y138.153 E17.18933
G1 X76.213 Y134.907 E17.30187
G1 X75.432 Y132.493 E17.38626
G1 X74.593 Y130.133 E17.46957
G1 X73.343 Y126.921 E17.5842
G1 X73.155 Y126.398 E17.60269
G1 X72.971 Y125.822 E17.6228
G1 X72.662 Y124.772 E17.6592
G1 X72.479 Y124.106 E17.68218
G1 X72.272 Y123.191 E17.71338
G1 X72.145 Y122.261 E17.7446
G1 X72.102 Y121.324 E17.7758
G1 X72.139 Y120.421 E17.80585
G1 X72.225 Y119.694 E17.8302
G1 X72.399 Y118.562 E17.8683
G1 X72.748 Y116.057 E17.95242
G1 X73.027 Y113.53 E18.03698
G1 X73.235 Y111.022 E18.12068
G1 X73.372 Y108.467 E18.20578
G1 X73.418 Y107.368 E18.24237
G1 X73.5 Y106.434 E18.27355
G1 X73.662 Y105.515 E18.30459
G1 X73.804 Y104.952 E18.3239
G1 X74.198 Y103.563 E18.37192
G1 X74.605 Y102.251 E18.41761
G1 X74.924 Y101.368 E18.44884
G1 X75.321 Y100.514 E18.48016
G1 X75.855 Y99.6 E18.51537
G1 X76.342 Y98.856 E18.54494
G1 X77.759 Y96.623 E18.6329
G1 X79.042 Y94.471 E18.71623
G1 X80.294 Y92.228 E18.80167
G1 X81.402 Y90.11 E18.88117
G1 X81.875 Y89.299 E18.9124
G1 X82.417 Y88.534 E18.94358
G1 X82.978 Y87.869 E18.97252
G1 X83.585 Y87.213 E19.00225
G1 X84.5 Y86.265 E19.04607
G0 F6000 X84.788 Y86.543
G1 F1200 X85.443 Y85.922 E19.07609
G1 X86.151 Y85.361 E19.10613
G1 X86.599 Y85.055 E19.12418
G1 X87.238 Y84.644 E19.14945
G1 X88.523 Y83.844 E19.19979
G1 X90.609 Y82.461 E19.28304
G1 X92.718 Y80.975 E19.36885
G1 X94.737 Y79.466 E19.45268
G1 X96.831 Y77.808 E19.54152
G1 X97.563 Y77.28 E19.57154
G1 X98.51 Y76.728 E19.60799
G1 X100.579 Y75.667 E19.68533
G1 X101.4 Y75.291 E19.71536
G1 X102.4 Y74.944 E19.75057
G1 X103.6 Y74.597 E19.79212
G1 X104.45 Y74.369 E19.82139
G1 X105.332 Y74.176 E19.85142
G1 X106.228 Y74.061 E19.88146
G1 X106.873 Y74.028 E19.90294
G1 X109.657 Y73.974 E19.99556
G1 X112.177 Y73.853 E20.07947
G1 X114.716 Y73.659 E20.16416
G1 X117.242 Y73.394 E20.24864
G1 X119.769 Y73.057 E20.33343
G1 X121.223 Y72.838 E20.38234
G1 X122.121 Y72.744 E20.41237
G1 X123.024 Y72.729 E20.44241
G1 X123.924 Y72.794 E20.47242
G1 X124.816 Y72.938 E20.50247
G1 X125.355 Y73.066 E20.5209
G1 X126.852 Y73.467 E20.57244
G1 X127.501 Y73.659 E20.59495
G1 X128.354 Y73.953 E20.62496
G1 X128.852 Y74.165 E20.64296
G1 X130.033 Y74.705 E20.68615
G1 X132.452 Y75.771 E20.77408
G1 X134.825 Y76.737 E20.85929
G1 X137.162 Y77.612 E20.94229
G1 X139.993 Y78.579 E21.04179
G1 X140.833 Y78.908 E21.0718
G1 X141.642 Y79.311 E21.10186
G1 X142.411 Y79.783 E21.13187
G1 X143.136 Y80.322 E21.16192
G1 X143.558 Y80.685 E21.18043
G1 X144.08 Y81.161 E21.20393
G1 X145.265 Y82.275 E21.25802
G1 X147.131 Y83.931 E21.341
G1 X149.469 Y85.884 E21.44232
G1 X150.371 Y86.714 E21.48309
G1 X151.406 Y87.791 E21.53277
G1 X151.889 Y88.318 E21.55655
G1 X152.469 Y89.01 E21.58658
G1 X152.985 Y89.751 E21.61661
G1 X153.566 Y90.799 E21.65647
G1 X154.782 Y93.334 E21.74998
G1 X155.962 Y95.62 E21.83554
G1 X157.186 Y97.836 E21.91974
G1 X158.463 Y100 E22.00332
G1 X158.987 Y100.836 E22.03613
G1 X159.468 Y101.628 E22.06695
G1 X159.902 Y102.42 E22.09699
G1 X160.265 Y103.247 E22.12703
G1 X160.488 Y103.889 E22.14963
G1 X160.727 Y104.668 E22.17674
G1 X161.083 Y105.927 E22.22025
G1 X161.322 Y106.982 E22.25623
G1 X161.786 Y109.693 E22.34771
G1 X162.398 Y112.711 E22.45013
G1 X162.539 Y113.603 E22.48017
G1 X162.599 Y114.504 E22.5102
G1 X162.58 Y115.407 E22.54024
G1 X162.503 Y116.154 E22.56522
G1 X162.177 Y118.476 E22.64321
G1 X161.894 Y120.981 E22.72705
G1 X161.676 Y123.549 E22.81277
G1 X161.512 Y126.57 E22.9134
G1 X161.435 Y127.469 E22.94341
G1 X161.278 Y128.359 E22.97347
G1 X161.166 Y128.812 E22.98899
G1 X160.77 Y130.261 E23.03895
G1 X160.576 Y130.913 E23.06158
G1 X160.281 Y131.766 E23.0916
G1 X159.911 Y132.59 E23.12164
G1 X159.686 Y133.011 E23.13752
G1 X159.374 Y133.565 E23.15866
G1 X158.116 Y135.871 E23.24603
G1 X156.965 Y138.13 E23.33036
G1 X155.86 Y140.462 E23.41619
G1 X154.996 Y142.41 E23.48706
G1 X154.594 Y143.219 E23.51711
G1 X154.121 Y143.988 E23.54714
G1 X153.583 Y144.713 E23.57717
G1 X152.956 Y145.414 E23.60845
G1 X151.921 Y146.465 E23.65751
G1 X151.236 Y147.125 E23.68915
G1 X150.721 Y147.599 E23.71243
G1 X148.847 Y149.37 E23.79818
G1 X146.891 Y151.329 E23.89026
G1 X145.775 Y152.477 E23.94351
G1 X144.963 Y153.276 E23.9814
G1 X144.292 Y153.881 E24.01145
G1 X143.344 Y154.574 E24.05051
G1 X142.356 Y155.212 E24.08962
G1 X141.607 Y155.711 E24.11956
G1 X140.735 Y156.272 E24.15404
G1 X139.955 Y156.726 E24.18406
G1 X139.137 Y157.109 E24.2141
G1 X138.14 Y157.464 E24.2493
G1 X137.419 Y157.679 E24.27433
G1 X133.667 Y158.721 E24.40384
G1 X131.281 Y159.461 E24.48693
G1 X128.847 Y160.291 E24.57246
G1 X125.861 Y161.414 E24.67857
G1 X125.183 Y161.642 E24.70236
G1 X124.196 Y161.933 E24.73658
G1 X123.06 Y162.24 E24.77572
G1 X122.179 Y162.437 E24.80575
G1 X121.283 Y162.555 E24.83581
G1 X120.381 Y162.593 E24.86583
G1 X119.479 Y162.551 E24.89587
G1 X118.586 Y162.431 E24.92584
G1 X116.108 Y161.983 E25.00959
G1 X113.594 Y161.599 E25.09418
G1 X111.114 Y161.292 E25.17729
G1 X108.524 Y161.044 E25.26383
G1 X106.293 Y160.889 E25.33821
G1 X105.396 Y160.787 E25.36824
G1 X104.471 Y160.595 E25.39966
G1 X103.853 Y160.429 E25.42094
