;FLAVOR:Marlin
;TIME:2612
;Filament used: 1.39026m
;Layer height: 0.2
;MINX:80.713
;MINY:80.716
;MINZ:0.2
;MAXX:154.285
;MAXY:154.289
;MAXZ:11.6
;TARGET_MACHINE.NAME:Creality Ender-3
;Generated with Cura_SteamEngine 5.6.0
M140 S50
M105
M190 S50
M104 S200
M105
M109 S200
M82 ;absolute extrusion mode
; Ender 3 Custom Start G-code
G92 E0 ; Reset Extruder
G28 ; Home all axes
G1 Z2.0 F3000 ; Move Z Axis up little to prevent scratching of Heat Bed
G1 X0.1 Y20 Z0.3 F5000.0 ; Move to start position
G1 X0.1 Y200.0 Z0.3 F1500.0 E15 ; Draw the first line
G1 X0.4 Y200.0 Z0.3 F5000.0 ; Move to side a little
G1 X0.4 Y20 Z0.3 F1500.0 E30 ; Draw the second line
G92 E0 ; Reset Extruder
G1 Z2.0 F3000 ; Move Z Axis up little to prevent scratching of Heat Bed
G1 X5 Y20 Z0.3 F5000.0 ; Move over to prevent blob squish
G92 E0
G92 E0
G1 F2700 E-5
;LAYER_COUNT:58
;LAYER:0
M107
G0 F6000 X91.948 Y91.057 Z0.2
;TYPE:SKIRT
G1 F2700 E0
G1 F1200 X92.591 Y90.429 E0.02989
G1 X93.178 Y89.898 E0.05622
G1 X93.691 Y89.47 E0.07844
G1 X94.865 Y88.522 E0.12863
G1 X95.57 Y87.968 E0.15845
G1 X96.046 Y87.615 E0.17816
G1 X96.516 Y87.294 E0.19709
G1 X97.95 Y86.361 E0.25399
G1 X98.796 Y85.828 E0.28725
G1 X99.595 Y85.371 E0.31787
G1 X101.545 Y84.371 E0.39075
G1 X102.211 Y84.044 E0.41543
G1 X102.872 Y83.748 E0.43952
G1 X103.562 Y83.47 E0.46426
G1 X105.053 Y82.897 E0.51739
G1 X105.764 Y82.635 E0.54259
G1 X106.518 Y82.388 E0.56898
G1 X107.21 Y82.192 E0.5929
G1 X108.592 Y81.821 E0.6405
G1 X109.464 Y81.602 E0.6704
G1 X109.996 Y81.483 E0.68853
G1 X110.599 Y81.371 E0.70893
G1 X112.38 Y81.087 E0.76891
G1 X113.25 Y80.962 E0.79815
G1 X113.855 Y80.892 E0.8184
G1 X114.437 Y80.849 E0.83781
G1 X116.387 Y80.744 E0.90277
G1 X117.142 Y80.717 E0.92789
G1 X117.914 Y80.716 E0.95357
G1 X118.699 Y80.747 E0.9797
G1 X120.216 Y80.827 E1.03022
G1 X120.966 Y80.878 E1.05523
G1 X121.566 Y80.937 E1.07528
G1 X122.241 Y81.027 E1.09793
G1 X123.91 Y81.29 E1.15413
G1 X124.77 Y81.438 E1.18315
G1 X125.388 Y81.563 E1.20412
G1 X125.941 Y81.697 E1.22305
G1 X127.636 Y82.149 E1.28139
G1 X128.478 Y82.387 E1.31049
G1 X129.196 Y82.619 E1.33559
G1 X129.892 Y82.876 E1.36027
G1 X131.303 Y83.417 E1.41053
G1 X132.095 Y83.734 E1.4389
G1 X132.76 Y84.028 E1.46309
G1 X133.488 Y84.383 E1.49002
G1 X134.75 Y85.024 E1.5371
G1 X135.554 Y85.446 E1.5673
G1 X136.24 Y85.842 E1.59365
G1 X136.731 Y86.15 E1.61293
G1 X138.154 Y87.076 E1.66939
G1 X138.822 Y87.524 E1.69615
G1 X139.306 Y87.869 E1.71592
G1 X139.768 Y88.225 E1.73531
G1 X141.291 Y89.458 E1.80049
G1 X141.827 Y89.905 E1.8237
G1 X142.389 Y90.411 E1.84885
G1 X142.95 Y90.953 E1.8748
G1 X143.944 Y91.949 E1.9216
G1 X144.578 Y92.603 E1.9519
G1 X144.967 Y93.026 E1.97101
G1 X145.35 Y93.475 E1.99064
G1 X146.439 Y94.814 E2.04804
G1 X146.985 Y95.503 E2.07728
G1 X147.539 Y96.271 E2.10878
G1 X148.717 Y98.065 E2.18016
G1 X149.14 Y98.733 E2.20646
G1 X149.551 Y99.441 E2.23369
G1 X149.927 Y100.153 E2.26047
G1 X150.535 Y101.352 E2.30518
G1 X150.948 Y102.192 E2.33631
G1 X151.191 Y102.725 E2.3558
G1 X151.406 Y103.248 E2.3746
G1 X152.113 Y105.085 E2.44007
G1 X152.353 Y105.736 E2.46315
G1 X152.55 Y106.321 E2.48368
G1 X152.723 Y106.912 E2.50416
G1 X153.328 Y109.2 E2.58288
G1 X153.5 Y109.963 E2.60889
G1 X153.672 Y110.88 E2.63992
G1 X153.937 Y112.524 E2.69531
G1 X154.045 Y113.276 E2.72058
G1 X154.128 Y114.078 E2.74739
G1 X154.18 Y114.862 E2.77353
G1 X154.285 Y116.993 E2.84449
G1 X154.283 Y118.086 E2.88084
G1 X154.18 Y120.098 E2.94785
G1 X154.124 Y120.936 E2.97578
G1 X154.067 Y121.539 E2.99593
G1 X153.981 Y122.179 E3.01741
G1 X153.699 Y123.977 E3.07794
G1 X153.56 Y124.777 E3.10495
G1 X153.392 Y125.572 E3.13197
G1 X153.207 Y126.294 E3.15676
G1 X152.808 Y127.774 E3.20774
G1 X152.605 Y128.487 E3.2324
G1 X152.423 Y129.065 E3.25256
G1 X152.204 Y129.683 E3.27436
G1 X151.601 Y131.262 E3.33058
G1 X151.262 Y132.111 E3.36099
G1 X150.935 Y132.846 E3.38774
G1 X150.576 Y133.571 E3.41465
G1 X149.616 Y135.429 E3.48421
G1 X149.23 Y136.112 E3.5103
G1 X148.803 Y136.799 E3.53721
G1 X147.894 Y138.199 E3.59272
G1 X147.499 Y138.79 E3.61637
G1 X147.133 Y139.302 E3.6373
G1 X146.78 Y139.758 E3.65648
G1 X145.541 Y141.294 E3.72212
G1 X145.126 Y141.793 E3.7437
G1 X144.612 Y142.365 E3.76928
G1 X144.048 Y142.947 E3.79624
G1 X142.901 Y144.091 E3.85012
G1 X142.391 Y144.585 E3.87373
G1 X141.913 Y145.02 E3.89523
G1 X141.39 Y145.462 E3.918
G1 X140.152 Y146.469 E3.97108
G1 X139.462 Y147.013 E4.00031
G1 X138.821 Y147.48 E4.02668
G1 X138.181 Y147.908 E4.05229
G1 X136.405 Y149.05 E4.12252
G1 X135.745 Y149.444 E4.14809
G1 X135.317 Y149.678 E4.16431
G1 X133.474 Y150.624 E4.23321
G1 X132.823 Y150.943 E4.25732
G1 X132.109 Y151.261 E4.28332
G1 X131.351 Y151.564 E4.31047
G1 X129.287 Y152.343 E4.38385
G1 X128.436 Y152.623 E4.41364
G1 X127.716 Y152.825 E4.43852
G1 X125.922 Y153.304 E4.50027
G1 X125.19 Y153.477 E4.52529
G1 X124.571 Y153.596 E4.54626
G1 X122.488 Y153.932 E4.61643
G1 X121.728 Y154.04 E4.64196
G1 X121.121 Y154.11 E4.66229
G1 X120.564 Y154.151 E4.68086
G1 X118.581 Y154.258 E4.74691
G1 X117.898 Y154.283 E4.76965
G1 X117.312 Y154.289 E4.78914
G1 X116.714 Y154.272 E4.80904
G1 X114.849 Y154.178 E4.87114
G1 X114.06 Y154.127 E4.89744
G1 X113.247 Y154.042 E4.92463
G1 X112.445 Y153.926 E4.95158
G1 X110.37 Y153.587 E5.02151
G1 X109.376 Y153.376 E5.05531
G1 X107.149 Y152.789 E5.13191
G1 X106.464 Y152.594 E5.1556
G1 X105.611 Y152.31 E5.1855
G1 X103.527 Y151.519 E5.25964
G1 X102.819 Y151.234 E5.28502
G1 X102.001 Y150.862 E5.31491
G1 X100.127 Y149.909 E5.38484
G1 X99.457 Y149.555 E5.41004
G1 X98.938 Y149.262 E5.42986
G1 X98.405 Y148.936 E5.45064
G1 X96.946 Y147.994 E5.50841
G1 X96.202 Y147.497 E5.53816
G1 X95.56 Y147.032 E5.56453
G1 X95.087 Y146.66 E5.58454
G1 X93.745 Y145.57 E5.64205
G1 X93.018 Y144.956 E5.6737
G1 X92.382 Y144.372 E5.70242
G1 X90.971 Y142.966 E5.76867
G1 X90.414 Y142.395 E5.7952
G1 X89.881 Y141.803 E5.82169
G1 X89.427 Y141.259 E5.84526
G1 X87.98 Y139.454 E5.9222
G1 X87.515 Y138.813 E5.94854
G1 X87.089 Y138.177 E5.974
G1 X86.221 Y136.837 E6.02711
G1 X85.841 Y136.231 E6.0509
G1 X85.535 Y135.709 E6.07102
G1 X85.24 Y135.163 E6.09166
G1 X84.363 Y133.449 E6.1557
G1 X84.062 Y132.836 E6.17841
G1 X83.739 Y132.113 E6.20475
G1 X83.465 Y131.428 E6.22929
G1 X82.949 Y130.087 E6.27708
G1 X82.634 Y129.224 E6.30763
G1 X82.41 Y128.538 E6.33164
G1 X82.213 Y127.853 E6.35534
G1 X81.818 Y126.383 E6.40597
G1 X81.602 Y125.523 E6.43546
G1 X81.478 Y124.966 E6.45444
G1 X81.357 Y124.309 E6.47666
G1 X80.977 Y121.871 E6.55873
G1 X80.879 Y120.979 E6.58857
G1 X80.821 Y120.122 E6.61714
G1 X80.75 Y118.807 E6.66094
G1 X80.715 Y117.871 E6.6921
G1 X80.713 Y117.128 E6.71681
G1 X80.743 Y116.327 E6.74347
G1 X80.821 Y114.845 E6.79283
G1 X80.872 Y114.067 E6.81876
G1 X80.954 Y113.278 E6.84515
G1 X81.067 Y112.489 E6.87166
G1 X81.42 Y110.347 E6.94386
G1 X81.56 Y109.642 E6.96777
G1 X81.712 Y109.013 E6.98929
G1 X82.158 Y107.338 E7.04694
G1 X82.428 Y106.395 E7.07956
G1 X82.722 Y105.517 E7.11036
G1 X83.47 Y103.565 E7.17989
G1 X83.673 Y103.059 E7.19802
G1 X83.937 Y102.454 E7.21998
G1 X84.496 Y101.291 E7.26289
G1 X85.406 Y99.526 E7.32894
G1 X85.834 Y98.77 E7.35784
G1 X86.213 Y98.167 E7.38152
G1 X87.007 Y96.945 E7.42999
G1 X87.512 Y96.189 E7.46023
G1 X87.972 Y95.556 E7.48626
G1 X88.435 Y94.97 E7.5111
G1 X89.454 Y93.714 E7.56489
G1 X89.899 Y93.183 E7.58794
G1 X90.307 Y92.725 E7.60834
G1 X90.796 Y92.212 E7.63191
G1 X91.948 Y91.057 E7.68617
G0 F6000 X92.227 Y91.343
G1 F1200 X92.859 Y90.726 E7.71554
G1 X93.435 Y90.205 E7.74137
G1 X93.942 Y89.781 E7.76336
G1 X95.112 Y88.836 E7.81338
G1 X95.808 Y88.289 E7.84282
G1 X96.272 Y87.945 E7.86203
G1 X96.734 Y87.629 E7.88065
G1 X98.163 Y86.699 E7.93736
G1 X98.994 Y86.175 E7.97003
G1 X99.778 Y85.727 E8.00007
G1 X101.721 Y84.73 E8.0727
G1 X102.375 Y84.409 E8.09693
G1 X103.022 Y84.119 E8.12052
G1 X103.705 Y83.843 E8.14502
G1 X105.192 Y83.272 E8.198
G1 X105.888 Y83.015 E8.22267
G1 X106.627 Y82.773 E8.24854
G1 X107.314 Y82.578 E8.27229
G1 X108.69 Y82.209 E8.31967
G1 X109.552 Y81.992 E8.34924
G1 X110.069 Y81.876 E8.36686
G1 X110.662 Y81.766 E8.38692
G1 X112.437 Y81.483 E8.4467
G1 X113.296 Y81.359 E8.47557
G1 X113.885 Y81.291 E8.49529
G1 X114.458 Y81.248 E8.5144
G1 X116.402 Y81.144 E8.57915
G1 X117.143 Y81.117 E8.60381
G1 X117.899 Y81.116 E8.62896
G1 X118.678 Y81.146 E8.65489
G1 X120.189 Y81.226 E8.70521
G1 X120.927 Y81.276 E8.72981
G1 X121.513 Y81.333 E8.7494
G1 X122.179 Y81.422 E8.77174
G1 X123.842 Y81.684 E8.82774
G1 X124.691 Y81.83 E8.85639
G1 X125.294 Y81.952 E8.87685
G1 X125.838 Y82.084 E8.89547
G1 X127.527 Y82.534 E8.95361
G1 X128.355 Y82.768 E8.98223
G1 X129.073 Y83 E9.00732
G1 X129.749 Y83.249 E9.03128
G1 X131.154 Y83.788 E9.08133
G1 X131.933 Y84.1 E9.10924
G1 X132.585 Y84.388 E9.13295
G1 X133.307 Y84.74 E9.15967
G1 X134.564 Y85.378 E9.20655
G1 X135.354 Y85.793 E9.23623
G1 X136.028 Y86.181 E9.2621
G1 X136.513 Y86.485 E9.28114
G1 X137.931 Y87.408 E9.33741
G1 X138.59 Y87.85 E9.3638
G1 X139.062 Y88.186 E9.38307
G1 X139.516 Y88.536 E9.40214
G1 X141.035 Y89.765 E9.46713
G1 X141.56 Y90.203 E9.48987
G1 X142.111 Y90.698 E9.5145
G1 X142.667 Y91.236 E9.54024
G1 X143.657 Y92.228 E9.58685
G1 X144.284 Y92.874 E9.61679
G1 X144.663 Y93.286 E9.63541
G1 X145.04 Y93.728 E9.65473
G1 X146.126 Y95.062 E9.71195
G1 X146.661 Y95.737 E9.74059
G1 X147.205 Y96.491 E9.77152
G1 X148.379 Y98.279 E9.84266
G1 X148.794 Y98.934 E9.86845
G1 X149.197 Y99.628 E9.89514
G1 X149.57 Y100.334 E9.9217
G1 X150.176 Y101.528 E9.96623
G1 X150.584 Y102.358 E9.997
G1 X150.821 Y102.877 E10.01597
G1 X151.033 Y103.392 E10.0345
G1 X151.738 Y105.224 E10.09978
G1 X151.974 Y105.863 E10.12244
G1 X152.166 Y106.434 E10.14248
G1 X152.336 Y107.014 E10.16258
G1 X152.938 Y109.288 E10.24082
G1 X153.107 Y110.037 E10.26636
G1 X153.277 Y110.944 E10.29705
G1 X153.541 Y112.581 E10.3522
G1 X153.647 Y113.317 E10.37693
G1 X153.729 Y114.104 E10.40325
G1 X153.78 Y114.882 E10.42918
G1 X153.885 Y116.993 E10.49948
G1 X153.884 Y118.065 E10.53513
G1 X153.781 Y120.071 E10.60194
G1 X153.726 Y120.898 E10.62951
G1 X153.67 Y121.486 E10.64915
G1 X153.586 Y122.117 E10.67033
G1 X153.305 Y123.909 E10.73066
G1 X153.169 Y124.694 E10.75716
G1 X153.004 Y125.473 E10.78364
G1 X152.821 Y126.19 E10.80825
G1 X152.423 Y127.665 E10.85906
G1 X152.224 Y128.367 E10.88333
G1 X152.046 Y128.931 E10.903
G1 X151.83 Y129.54 E10.9245
G1 X151.229 Y131.114 E10.98053
G1 X150.896 Y131.949 E11.01043
G1 X150.576 Y132.669 E11.03664
G1 X150.221 Y133.387 E11.06328
G1 X149.268 Y135.232 E11.13235
G1 X148.89 Y135.901 E11.1579
G1 X148.468 Y136.581 E11.18452
G1 X147.561 Y137.977 E11.23989
G1 X147.173 Y138.558 E11.26313
G1 X146.817 Y139.057 E11.28352
G1 X146.469 Y139.507 E11.30244
G1 X145.234 Y141.038 E11.36786
G1 X144.828 Y141.526 E11.38898
G1 X144.325 Y142.087 E11.41404
G1 X143.766 Y142.664 E11.44076
G1 X142.623 Y143.804 E11.49445
G1 X142.122 Y144.289 E11.51764
G1 X141.654 Y144.715 E11.53869
G1 X141.138 Y145.152 E11.56118
G1 X139.904 Y146.155 E11.61407
G1 X139.226 Y146.69 E11.6428
G1 X138.599 Y147.148 E11.66862
G1 X137.965 Y147.572 E11.69399
G1 X136.2 Y148.707 E11.76378
G1 X135.554 Y149.093 E11.78881
G1 X135.134 Y149.322 E11.80472
G1 X133.298 Y150.265 E11.87337
G1 X132.66 Y150.578 E11.89701
G1 X131.961 Y150.89 E11.92247
G1 X131.21 Y151.19 E11.94937
G1 X129.162 Y151.963 E12.02217
G1 X128.328 Y152.238 E12.05138
G1 X127.613 Y152.439 E12.07608
G1 X125.83 Y152.915 E12.13746
G1 X125.114 Y153.084 E12.16193
G1 X124.507 Y153.201 E12.18249
G1 X122.424 Y153.537 E12.25267
G1 X121.682 Y153.643 E12.2776
G1 X121.091 Y153.711 E12.29739
G1 X120.543 Y153.752 E12.31566
G1 X118.566 Y153.858 E12.38151
G1 X117.894 Y153.883 E12.40388
G1 X117.324 Y153.889 E12.42284
G1 X116.734 Y153.872 E12.44247
G1 X114.875 Y153.779 E12.50438
G1 X114.101 Y153.729 E12.53018
G1 X113.304 Y153.646 E12.55683
G1 X112.509 Y153.531 E12.58354
G1 X110.453 Y153.196 E12.65283
G1 X109.478 Y152.989 E12.68598
G1 X107.258 Y152.404 E12.76234
G1 X106.59 Y152.214 E12.78544
G1 X105.753 Y151.936 E12.81477
G1 X103.676 Y151.148 E12.88866
G1 X102.985 Y150.87 E12.91343
G1 X102.167 Y150.498 E12.94332
G1 X100.314 Y149.555 E13.01247
G1 X99.653 Y149.206 E13.03733
G1 X99.147 Y148.921 E13.05665
G1 X98.622 Y148.6 E13.07711
G1 X97.168 Y147.661 E13.13468
G1 X96.437 Y147.173 E13.16392
G1 X95.795 Y146.708 E13.19028
G1 X95.339 Y146.349 E13.20958
G1 X94.003 Y145.264 E13.26683
G1 X93.289 Y144.661 E13.29791
G1 X92.653 Y144.077 E13.32663
G1 X91.257 Y142.687 E13.39215
G1 X90.711 Y142.127 E13.41817
G1 X90.188 Y141.547 E13.44414
G1 X89.738 Y141.008 E13.4675
G1 X88.737 Y139.769 E13.52047
G1 X88.304 Y139.219 E13.54376
G1 X87.847 Y138.59 E13.56961
G1 X87.425 Y137.96 E13.59484
G1 X86.56 Y136.624 E13.64777
G1 X86.186 Y136.028 E13.67117
G1 X85.887 Y135.519 E13.69081
G1 X85.596 Y134.981 E13.71115
G1 X84.722 Y133.273 E13.77497
G1 X84.427 Y132.673 E13.7972
G1 X84.11 Y131.964 E13.82303
G1 X83.838 Y131.285 E13.84736
G1 X83.325 Y129.95 E13.89493
G1 X83.014 Y129.1 E13.92503
G1 X82.794 Y128.427 E13.94858
G1 X82.599 Y127.749 E13.97205
G1 X82.206 Y126.285 E14.02247
G1 X81.992 Y125.436 E14.05159
G1 X81.871 Y124.894 E14.07006
G1 X81.752 Y124.247 E14.09194
G1 X81.375 Y121.827 E14.1734
G1 X81.278 Y120.952 E14.20268
G1 X81.22 Y120.101 E14.23105
G1 X81.15 Y118.792 E14.27465
G1 X81.115 Y117.87 E14.30534
G1 X81.113 Y117.143 E14.32952
G1 X81.142 Y116.348 E14.35598
G1 X81.22 Y114.871 E14.40517
G1 X81.27 Y114.108 E14.4306
G1 X81.35 Y113.335 E14.45645
G1 X81.462 Y112.554 E14.48269
G1 X81.812 Y110.425 E14.55445
G1 X81.949 Y109.736 E14.57782
G1 X82.099 Y109.116 E14.59903
G1 X82.543 Y107.448 E14.65644
G1 X82.813 Y106.505 E14.68907
G1 X83.096 Y105.66 E14.71871
G1 X83.841 Y103.714 E14.78801
G1 X84.039 Y103.219 E14.80574
G1 X84.298 Y102.627 E14.82724
G1 X84.852 Y101.474 E14.86978
G1 X85.754 Y99.723 E14.93529
G1 X86.173 Y98.983 E14.96358
G1 X86.548 Y98.385 E14.98705
G1 X87.339 Y97.167 E15.03536
G1 X87.836 Y96.424 E15.06509
G1 X88.286 Y95.804 E15.09057
G1 X88.745 Y95.222 E15.11522
G1 X89.761 Y93.971 E15.16883
G1 X90.198 Y93.449 E15.19147
G1 X90.597 Y93.001 E15.21142
G1 X91.079 Y92.494 E15.23469
G1 X92.227 Y91.343 E15.28876
G0 F6000 X92.506 Y91.629
G1 F1200 X93.127 Y91.023 E15.31762
G1 X93.692 Y90.512 E15.34295
G1 X94.194 Y90.092 E15.36472
G1 X95.359 Y89.15 E15.41455
G1 X96.046 Y88.61 E15.44362
G1 X96.498 Y88.275 E15.46233
G1 X96.952 Y87.964 E15.48063
G1 X98.376 Y87.037 E15.53715
G1 X99.192 Y86.522 E15.56924
G1 X99.961 Y86.083 E15.59869
G1 X101.897 Y85.089 E15.67108
G1 X102.539 Y84.774 E15.69486
G1 X103.172 Y84.49 E15.71794
G1 X103.848 Y84.216 E15.7422
G1 X105.331 Y83.647 E15.79503
G1 X106.013 Y83.395 E15.81921
G1 X106.736 Y83.158 E15.84452
G1 X107.418 Y82.964 E15.8681
G1 X108.788 Y82.597 E15.91527
G1 X109.64 Y82.382 E15.9445
G1 X110.142 Y82.269 E15.96161
G1 X110.725 Y82.161 E15.98133
G1 X112.494 Y81.879 E16.04091
G1 X113.342 Y81.756 E16.06941
G1 X113.915 Y81.69 E16.0886
G1 X114.479 Y81.647 E16.10741
G1 X116.417 Y81.544 E16.17196
G1 X117.144 Y81.517 E16.19616
G1 X117.884 Y81.516 E16.22077
G1 X118.657 Y81.545 E16.2465
G1 X120.162 Y81.625 E16.29662
G1 X120.888 Y81.674 E16.32083
G1 X121.46 Y81.73 E16.33994
G1 X122.117 Y81.817 E16.36198
G1 X123.774 Y82.078 E16.41778
G1 X124.612 Y82.222 E16.44606
G1 X125.2 Y82.341 E16.46601
G1 X125.735 Y82.471 E16.48432
G1 X127.418 Y82.919 E16.54225
G1 X128.232 Y83.149 E16.57038
G1 X128.95 Y83.381 E16.59548
G1 X129.606 Y83.622 E16.61872
G1 X131.005 Y84.159 E16.66856
G1 X131.771 Y84.466 E16.69601
G1 X132.423 Y84.754 E16.71972
G1 X133.126 Y85.097 E16.74573
G1 X134.378 Y85.732 E16.79243
G1 X135.155 Y86.14 E16.82161
G1 X135.816 Y86.52 E16.84697
G1 X136.295 Y86.82 E16.86577
G1 X137.708 Y87.74 E16.92185
G1 X138.358 Y88.176 E16.94788
G1 X138.818 Y88.503 E16.96666
G1 X139.264 Y88.847 E16.98539
G1 X140.779 Y90.072 E17.05019
G1 X141.293 Y90.501 E17.07246
G1 X141.833 Y90.985 E17.09658
G1 X142.384 Y91.519 E17.1221
G1 X143.37 Y92.507 E17.16852
G1 X143.99 Y93.145 E17.19811
G1 X144.359 Y93.546 E17.21624
G1 X144.73 Y93.98 E17.23523
G1 X145.813 Y95.311 E17.2923
G1 X146.337 Y95.971 E17.32033
G1 X146.871 Y96.71 E17.35065
G1 X148.041 Y98.493 E17.42158
G1 X148.448 Y99.135 E17.44687
G1 X148.843 Y99.815 E17.47302
G1 X149.213 Y100.515 E17.49936
