;FLAVOR:Marlin
;TIME:2536
;Filament used: 1.70847m
;Layer height: 0.2
;MINX:73.216
;MINY:73.216
;MINZ:0.2
;MAXX:146.788
;MAXY:146.785
;MAXZ:12
;TARGET_MACHINE.NAME:Creality Ender-3 S1 Pro
;Generated with Cura_SteamEngine 5.6.0
M82 ;absolute extrusion mode
; Ender 3 S1 Pro Start G-code
; M413 S0 ; Disable power loss recovery
G92 E0 ; Reset Extruder

; Prep surfaces before auto home for better accuracy
M140 S60
M104 S200

G28 ; Home all axes
G1 Z10.0 F3000 ; Move Z Axis up little to prevent scratching of Heat Bed
G1 X0 Y0

M190 S60
M109 S200

G1 X0.1 Y20 Z0.3 F5000.0 ; Move to start position
G1 X0.1 Y200.0 Z0.3 F1500.0 E15 ; Draw the first line
G1 X0.4 Y200.0 Z0.3 F5000.0 ; Move to side a little
G1 X0.4 Y20 Z0.3 F1500.0 E30 ; Draw the second line
G92 E0 ; Reset Extruder
G1 Z2.0 F3000 ; Move Z Axis up little to prevent scratching of Heat Bed
G1 X5 Y20 Z0.3 F5000.0 ; Move over to prevent blob squish

G92 E0
G92 E0
G1 F2400 E-0.8
;LAYER_COUNT:60
;LAYER:0
M107
M204 S2000
G0 F7500 X83.464 Y84.541 Z0.2
M204 S500
;TYPE:SKIRT
G1 F2400 E0
G1 F1500 X85.014 Y83.006 E0.07256
G1 X85.577 Y82.488 E0.098
G1 X85.997 Y82.132 E0.11631
G1 X87.49 Y80.923 E0.18021
G1 X88.076 Y80.461 E0.20503
G1 X88.741 Y79.979 E0.23235
G1 X89.398 Y79.54 E0.25863
G1 X90.629 Y78.743 E0.3074
G1 X91.28 Y78.336 E0.33294
G1 X91.943 Y77.952 E0.35842
G1 X92.536 Y77.638 E0.38074
G1 X94.189 Y76.796 E0.44244
G1 X94.757 Y76.518 E0.46347
G1 X95.552 Y76.173 E0.4923
G1 X97.637 Y75.366 E0.56666
G1 X98.273 Y75.134 E0.58917
G1 X98.814 Y74.952 E0.60816
G1 X99.395 Y74.782 E0.62829
G1 X101.263 Y74.279 E0.69264
G1 X101.911 Y74.116 E0.71486
G1 X102.696 Y73.949 E0.74155
G1 X103.705 Y73.774 E0.77561
G1 X105.064 Y73.559 E0.82138
G1 X105.852 Y73.447 E0.84785
G1 X106.785 Y73.357 E0.87903
G1 X108.897 Y73.243 E0.94937
G1 X109.629 Y73.217 E0.97373
G1 X110.399 Y73.216 E0.99935
G1 X111.282 Y73.251 E1.02874
G1 X113.302 Y73.366 E1.09603
G1 X114.212 Y73.458 E1.12645
G1 X115.403 Y73.631 E1.16648
G1 X117.038 Y73.899 E1.22159
G1 X117.852 Y74.06 E1.24919
G1 X118.431 Y74.199 E1.26899
G1 X120.321 Y74.705 E1.33407
G1 X121.046 Y74.913 E1.35915
G1 X121.736 Y75.137 E1.38328
G1 X122.371 Y75.369 E1.40577
G1 X124.388 Y76.145 E1.47765
G1 X124.719 Y76.282 E1.48956
G1 X125.463 Y76.625 E1.51681
G1 X127.285 Y77.545 E1.5847
G1 X128.037 Y77.942 E1.61298
G1 X128.571 Y78.244 E1.63338
G1 X129.125 Y78.586 E1.65504
G1 X131.199 Y79.937 E1.73736
G1 X132.027 Y80.538 E1.77139
G1 X133.745 Y81.923 E1.84479
G1 X134.343 Y82.422 E1.87069
G1 X134.883 Y82.908 E1.89486
G1 X135.384 Y83.389 E1.91796
G1 X136.512 Y84.517 E1.97102
G1 X137.05 Y85.072 E1.99672
G1 X137.436 Y85.492 E2.0157
G1 X137.911 Y86.046 E2.03997
G1 X138.982 Y87.371 E2.09663
G1 X139.495 Y88.024 E2.12425
G1 X139.957 Y88.658 E2.15035
G1 X140.571 Y89.574 E2.18702
G1 X141.6 Y91.173 E2.25027
G1 X142.053 Y91.952 E2.28024
G1 X142.537 Y92.877 E2.31496
G1 X143.372 Y94.534 E2.37668
G1 X143.743 Y95.36 E2.40679
G1 X144.135 Y96.338 E2.44184
G1 X144.827 Y98.17 E2.50697
G1 X145.135 Y99.119 E2.54016
G1 X145.711 Y101.23 E2.61293
G1 X145.896 Y101.965 E2.63814
G1 X146.06 Y102.732 E2.66423
G1 X146.191 Y103.485 E2.68965
G1 X146.417 Y104.908 E2.73757
G1 X146.539 Y105.76 E2.7662
G1 X146.606 Y106.332 E2.78536
G1 X146.651 Y106.936 E2.8055
G1 X146.774 Y109.308 E2.8845
G1 X146.788 Y110.156 E2.91271
G1 X146.775 Y110.678 E2.93008
G1 X146.671 Y112.751 E2.99911
G1 X146.622 Y113.474 E3.02321
G1 X146.545 Y114.213 E3.04792
G1 X146.447 Y114.903 E3.0711
G1 X146.182 Y116.559 E3.12688
G1 X146.062 Y117.253 E3.15031
G1 X145.942 Y117.847 E3.17046
G1 X145.8 Y118.436 E3.19062
G1 X145.352 Y120.117 E3.24848
G1 X145.09 Y121.045 E3.28055
G1 X144.793 Y121.938 E3.31185
G1 X144.103 Y123.75 E3.37634
G1 X143.832 Y124.43 E3.40069
G1 X143.566 Y125.039 E3.42279
G1 X143.013 Y126.192 E3.46532
G1 X142.123 Y127.92 E3.52997
G1 X141.669 Y128.716 E3.56045
G1 X141.306 Y129.294 E3.58315
G1 X140.075 Y131.176 E3.65795
G1 X139.576 Y131.874 E3.68648
G1 X139.079 Y132.512 E3.71338
G1 X138.096 Y133.722 E3.76524
G1 X137.595 Y134.324 E3.79128
G1 X137.096 Y134.882 E3.81618
G1 X136.602 Y135.393 E3.83982
G1 X135.412 Y136.581 E3.89575
G1 X134.902 Y137.075 E3.91936
G1 X134.437 Y137.5 E3.94032
G1 X133.97 Y137.897 E3.9607
G1 X132.484 Y139.099 E4.02427
G1 X131.905 Y139.551 E4.0487
G1 X131.313 Y139.982 E4.07306
G1 X130.695 Y140.397 E4.09782
G1 X128.823 Y141.602 E4.17187
G1 X128.007 Y142.076 E4.20325
G1 X127.111 Y142.543 E4.23686
G1 X125.481 Y143.363 E4.29755
G1 X124.662 Y143.733 E4.32744
G1 X123.608 Y144.156 E4.36521
G1 X122.397 Y144.622 E4.40837
G1 X121.693 Y144.878 E4.43328
G1 X120.962 Y145.113 E4.45882
G1 X120.185 Y145.332 E4.48567
G1 X118.106 Y145.877 E4.55716
G1 X117.244 Y146.064 E4.58649
G1 X116.496 Y146.194 E4.61174
G1 X115.13 Y146.411 E4.65775
G1 X114.225 Y146.542 E4.68816
G1 X113.502 Y146.62 E4.71235
G1 X112.841 Y146.667 E4.73439
G1 X110.371 Y146.785 E4.81664
G1 X109.578 Y146.783 E4.84301
G1 X107.203 Y146.668 E4.9221
G1 X106.472 Y146.617 E4.94647
G1 X105.631 Y146.523 E4.97461
G1 X103.426 Y146.181 E5.04883
G1 X102.86 Y146.082 E5.06794
G1 X102.221 Y145.954 E5.08962
G1 X101.647 Y145.82 E5.10922
G1 X99.76 Y145.317 E5.17417
G1 X99.025 Y145.108 E5.19959
G1 X98.272 Y144.864 E5.22592
G1 X97.452 Y144.562 E5.25498
G1 X96.086 Y144.038 E5.30364
G1 X95.36 Y143.746 E5.32967
G1 X94.676 Y143.441 E5.35458
G1 X94.049 Y143.134 E5.3778
G1 X92.701 Y142.447 E5.42812
G1 X91.935 Y142.042 E5.45694
G1 X91.227 Y141.633 E5.48413
G1 X89.378 Y140.444 E5.55725
G1 X88.713 Y140 E5.58384
G1 X88.27 Y139.686 E5.6019
G1 X87.745 Y139.282 E5.62394
G1 X86.384 Y138.185 E5.68208
G1 X85.706 Y137.621 E5.71141
G1 X85.135 Y137.108 E5.73694
G1 X84.529 Y136.522 E5.76498
G1 X83.423 Y135.416 E5.817
G1 X82.925 Y134.903 E5.84078
G1 X82.399 Y134.319 E5.86692
G1 X81.915 Y133.74 E5.89202
G1 X81.039 Y132.657 E5.93835
G1 X80.469 Y131.933 E5.969
G1 X80.007 Y131.299 E5.99509
G1 X79.605 Y130.7 E6.01908
G1 X78.762 Y129.399 E6.07065
G1 X78.324 Y128.699 E6.09811
G1 X77.942 Y128.039 E6.12347
G1 X77.695 Y127.574 E6.14099
G1 X76.906 Y126.029 E6.19869
G1 X76.55 Y125.303 E6.22558
G1 X76.226 Y124.577 E6.25202
G1 X76.023 Y124.074 E6.27006
G1 X75.189 Y121.888 E6.34788
G1 X74.901 Y121.019 E6.37833
G1 X74.701 Y120.314 E6.4027
G1 X74.146 Y118.217 E6.47485
G1 X74.073 Y117.91 E6.48535
G1 X73.942 Y117.267 E6.50717
G1 X73.769 Y116.269 E6.54086
G1 X73.563 Y114.966 E6.58474
G1 X73.444 Y114.113 E6.61338
G1 X73.36 Y113.238 E6.64262
G1 X73.249 Y111.242 E6.70911
G1 X73.217 Y110.377 E6.7379
G1 X73.216 Y109.608 E6.76348
G1 X73.241 Y108.95 E6.78538
G1 X73.332 Y107.208 E6.8434
G1 X73.383 Y106.487 E6.86744
G1 X73.441 Y105.905 E6.88689
G1 X73.524 Y105.289 E6.90756
G1 X73.92 Y102.84 E6.99007
G1 X74.138 Y101.81 E7.02509
G1 X74.7 Y99.694 E7.09791
G1 X74.914 Y98.948 E7.12372
G1 X75.128 Y98.288 E7.1468
G1 X75.37 Y97.624 E7.17031
G1 X76.12 Y95.688 E7.23936
G1 X76.446 Y94.936 E7.26662
G1 X77.013 Y93.76 E7.31004
G1 X77.877 Y92.081 E7.37285
G1 X78.405 Y91.17 E7.40787
G1 X79.612 Y89.293 E7.48209
G1 X80.016 Y88.689 E7.50626
G1 X80.428 Y88.117 E7.52971
G1 X80.865 Y87.557 E7.55333
G1 X81.974 Y86.19 E7.61188
G1 X82.396 Y85.683 E7.63382
G1 X82.913 Y85.11 E7.65949
G1 X83.464 Y84.541 E7.68583
M204 S2000
G0 F7500 X83.745 Y84.825
M204 S500
G1 F1500 X85.285 Y83.3 E7.75792
G1 X85.836 Y82.793 E7.78282
G1 X86.249 Y82.443 E7.80083
G1 X87.737 Y81.237 E7.86453
G1 X88.311 Y80.785 E7.88883
G1 X88.963 Y80.312 E7.91562
G1 X89.616 Y79.876 E7.94174
G1 X90.841 Y79.082 E7.99029
G1 X91.48 Y78.682 E8.01537
G1 X92.131 Y78.305 E8.04039
G1 X92.717 Y77.994 E8.06245
G1 X94.365 Y77.155 E8.12396
G1 X94.917 Y76.885 E8.1444
G1 X95.696 Y76.546 E8.17265
G1 X97.774 Y75.742 E8.24676
G1 X98.401 Y75.513 E8.26896
G1 X98.927 Y75.336 E8.28742
G1 X99.499 Y75.168 E8.30725
G1 X101.361 Y74.667 E8.37138
G1 X101.994 Y74.507 E8.3931
G1 X102.764 Y74.343 E8.41928
G1 X103.767 Y74.169 E8.45314
G1 X105.12 Y73.955 E8.4987
G1 X105.891 Y73.845 E8.52461
G1 X106.806 Y73.756 E8.55518
G1 X108.911 Y73.643 E8.6253
G1 X109.63 Y73.617 E8.64922
G1 X110.383 Y73.616 E8.67427
G1 X111.259 Y73.65 E8.70343
G1 X113.262 Y73.764 E8.77016
G1 X114.154 Y73.854 E8.79997
G1 X115.338 Y74.026 E8.83977
G1 X116.973 Y74.294 E8.89487
G1 X117.759 Y74.449 E8.92152
G1 X118.327 Y74.585 E8.94095
G1 X120.211 Y75.09 E9.00582
G1 X120.923 Y75.294 E9.03045
G1 X121.599 Y75.513 E9.05409
G1 X122.227 Y75.742 E9.07632
G1 X124.235 Y76.515 E9.14788
G1 X124.566 Y76.652 E9.1598
G1 X125.283 Y76.982 E9.18605
G1 X127.098 Y77.899 E9.25369
G1 X127.85 Y78.296 E9.28197
G1 X128.361 Y78.584 E9.30148
G1 X128.907 Y78.921 E9.32282
G1 X130.964 Y80.261 E9.40447
G1 X131.792 Y80.862 E9.4385
G1 X133.489 Y82.23 E9.511
G1 X134.076 Y82.72 E9.53643
G1 X134.606 Y83.196 E9.56012
G1 X135.101 Y83.672 E9.58297
G1 X136.225 Y84.796 E9.63583
G1 X136.756 Y85.343 E9.66119
G1 X137.132 Y85.752 E9.67967
G1 X137.6 Y86.298 E9.70359
G1 X138.668 Y87.618 E9.76006
G1 X139.172 Y88.259 E9.78718
G1 X139.625 Y88.881 E9.81277
G1 X140.235 Y89.79 E9.84918
G1 X141.254 Y91.374 E9.91183
G1 X141.707 Y92.153 E9.9418
G1 X142.18 Y93.057 E9.97573
G1 X143.007 Y94.698 E10.03685
G1 X143.372 Y95.509 E10.06643
G1 X143.761 Y96.479 E10.10119
G1 X144.447 Y98.294 E10.16573
G1 X144.749 Y99.224 E10.19825
G1 X145.323 Y101.328 E10.27079
G1 X145.505 Y102.049 E10.29552
G1 X145.666 Y102.8 E10.32107
G1 X145.796 Y103.548 E10.34632
G1 X146.021 Y104.965 E10.39404
G1 X146.142 Y105.806 E10.4223
G1 X146.207 Y106.362 E10.44092
G1 X146.252 Y106.957 E10.46076
G1 X146.374 Y109.315 E10.5393
G1 X146.388 Y110.147 E10.56697
G1 X146.376 Y110.658 E10.58397
G1 X146.272 Y112.724 E10.65277
G1 X146.224 Y113.433 E10.67641
G1 X146.149 Y114.157 E10.70062
G1 X146.052 Y114.84 E10.72356
G1 X145.788 Y116.491 E10.77917
G1 X145.67 Y117.174 E10.80223
G1 X145.553 Y117.753 E10.82187
G1 X145.413 Y118.333 E10.84172
G1 X144.967 Y120.008 E10.89937
G1 X144.71 Y120.919 E10.93085
G1 X144.419 Y121.796 E10.96159
G1 X143.731 Y123.602 E11.02587
G1 X143.465 Y124.27 E11.04978
G1 X143.205 Y124.866 E11.07141
G1 X142.657 Y126.009 E11.11357
G1 X141.767 Y127.737 E11.17822
G1 X141.33 Y128.503 E11.20755
G1 X140.971 Y129.075 E11.23001
G1 X139.749 Y130.944 E11.30428
G1 X139.261 Y131.628 E11.33223
G1 X138.768 Y132.26 E11.35889
G1 X137.789 Y133.466 E11.41055
G1 X137.297 Y134.057 E11.43613
G1 X136.808 Y134.604 E11.46053
G1 X136.319 Y135.11 E11.48393
G1 X135.133 Y136.294 E11.53967
G1 X134.632 Y136.78 E11.56289
G1 X134.178 Y137.195 E11.58335
G1 X133.718 Y137.586 E11.60343
G1 X132.238 Y138.784 E11.66676
G1 X131.67 Y139.228 E11.69074
G1 X131.09 Y139.65 E11.71459
G1 X130.478 Y140.061 E11.73911
G1 X128.622 Y141.256 E11.81253
G1 X127.822 Y141.721 E11.84331
G1 X126.931 Y142.186 E11.87674
G1 X125.316 Y142.999 E11.93687
G1 X124.513 Y143.362 E11.96618
G1 X123.464 Y143.783 E12.00378
G1 X122.26 Y144.246 E12.04668
G1 X121.57 Y144.497 E12.0711
G1 X120.853 Y144.728 E12.09616
G1 X120.083 Y144.945 E12.12276
G1 X118.021 Y145.486 E12.19367
G1 X117.176 Y145.67 E12.22243
G1 X116.433 Y145.799 E12.24751
G1 X115.073 Y146.015 E12.29331
G1 X114.182 Y146.144 E12.32326
G1 X113.474 Y146.221 E12.34695
G1 X112.822 Y146.267 E12.36868
G1 X110.372 Y146.385 E12.45027
G1 X109.595 Y146.383 E12.47611
G1 X108.567 Y146.34 E12.51033
G1 X107.231 Y146.269 E12.55483
G1 X106.516 Y146.219 E12.57867
G1 X105.675 Y146.125 E12.60681
G1 X103.495 Y145.787 E12.68019
G1 X102.938 Y145.69 E12.69899
G1 X102.312 Y145.565 E12.72022
G1 X101.75 Y145.433 E12.73943
G1 X99.869 Y144.932 E12.80417
G1 X99.149 Y144.728 E12.82906
G1 X98.41 Y144.488 E12.8549
G1 X97.595 Y144.189 E12.88378
G1 X96.235 Y143.667 E12.93223
G1 X95.523 Y143.381 E12.95775
G1 X94.852 Y143.082 E12.98218
G1 X94.231 Y142.778 E13.00518
G1 X92.888 Y142.093 E13.05532
G1 X92.135 Y141.696 E13.08363
G1 X91.441 Y141.295 E13.11029
G1 X90.733 Y140.847 E13.13816
G1 X89.6 Y140.111 E13.18309
G1 X88.944 Y139.673 E13.20933
G1 X88.514 Y139.369 E13.22684
G1 X87.996 Y138.971 E13.24857
G1 X86.64 Y137.878 E13.3065
G1 X85.973 Y137.323 E13.33536
G1 X85.413 Y136.82 E13.3604
G1 X84.807 Y136.234 E13.38843
G1 X83.71 Y135.137 E13.44003
G1 X83.222 Y134.635 E13.46332
G1 X82.706 Y134.063 E13.48894
G1 X82.226 Y133.488 E13.51385
G1 X81.353 Y132.409 E13.56002
G1 X80.792 Y131.697 E13.59016
G1 X80.339 Y131.076 E13.61573
G1 X79.941 Y130.482 E13.63951
G1 X79.101 Y129.186 E13.69088
G1 X78.67 Y128.499 E13.71785
G1 X78.295 Y127.851 E13.74275
G1 X78.051 Y127.392 E13.76004
G1 X77.265 Y125.853 E13.81752
G1 X76.915 Y125.14 E13.84394
G1 X76.597 Y124.427 E13.8699
G1 X76.397 Y123.931 E13.88769
G1 X75.569 Y121.762 E13.96491
G1 X75.286 Y120.91 E13.99477
G1 X75.088 Y120.212 E14.0189
G1 X74.535 Y118.124 E14.09074
G1 X74.465 Y117.83 E14.1008
G1 X74.336 Y117.199 E14.12222
G1 X74.164 Y116.207 E14.1557
G1 X73.959 Y114.911 E14.19935
G1 X73.842 Y114.075 E14.22742
G1 X73.759 Y113.216 E14.25613
G1 X73.649 Y111.227 E14.32238
G1 X73.617 Y110.376 E14.3507
G1 X73.616 Y109.623 E14.37575
G1 X73.64 Y108.971 E14.39745
G1 X73.731 Y107.236 E14.45524
G1 X73.781 Y106.526 E14.47891
G1 X73.837 Y105.959 E14.49786
G1 X73.919 Y105.353 E14.5182
G1 X74.311 Y102.923 E14.60007
G1 X74.525 Y101.913 E14.6344
G1 X75.085 Y99.804 E14.70698
G1 X75.295 Y99.071 E14.73234
G1 X75.504 Y98.425 E14.75492
G1 X75.743 Y97.768 E14.77818
G1 X76.487 Y95.847 E14.84669
G1 X76.806 Y95.11 E14.8734
G1 X77.369 Y93.943 E14.9165
G1 X78.233 Y92.264 E14.9793
G1 X78.741 Y91.386 E15.01304
G1 X79.944 Y89.516 E15.087
G1 X80.341 Y88.923 E15.11073
G1 X80.753 Y88.351 E15.13418
G1 X81.176 Y87.809 E15.15705
G1 X82.281 Y86.446 E15.2154
G1 X82.693 Y85.951 E15.23683
G1 X83.2 Y85.388 E15.26202
G1 X83.745 Y84.825 E15.28809
M204 S2000
G0 F7500 X84.027 Y85.109
M204 S500
G1 F1500 X85.556 Y83.594 E15.35968
G1 X86.094 Y83.098 E15.38402
G1 X86.501 Y82.754 E15.40174
G1 X87.984 Y81.551 E15.46525
G1 X88.546 Y81.109 E15.48903
G1 X89.185 Y80.645 E15.5153
G1 X89.833 Y80.212 E15.54122
G1 X91.054 Y79.421 E15.58961
G1 X91.68 Y79.028 E15.61419
G1 X92.319 Y78.658 E15.63875
G1 X92.899 Y78.35 E15.66059
G1 X94.54 Y77.514 E15.72185
G1 X95.077 Y77.252 E15.74172
G1 X95.84 Y76.919 E15.76941
G1 X97.912 Y76.118 E15.84329
G1 X98.529 Y75.892 E15.86515
G1 X99.04 Y75.72 E15.88308
G1 X99.603 Y75.554 E15.90261
G1 X101.459 Y75.055 E15.96653
G1 X102.078 Y74.898 E15.98777
G1 X102.832 Y74.737 E16.01341
G1 X103.829 Y74.564 E16.04707
G1 X105.177 Y74.351 E16.09246
G1 X105.93 Y74.243 E16.11776
G1 X106.827 Y74.155 E16.14774
G1 X108.926 Y74.043 E16.21765
G1 X109.631 Y74.017 E16.24111
G1 X110.368 Y74.016 E16.26563
G1 X111.236 Y74.049 E16.29452
G1 X113.222 Y74.162 E16.36068
G1 X114.096 Y74.25 E16.38989
G1 X115.273 Y74.421 E16.42945
G1 X116.896 Y74.687 E16.48415
G1 X117.666 Y74.838 E16.51025
G1 X118.223 Y74.971 E16.5293
G1 X120.101 Y75.475 E16.59397
G1 X120.8 Y75.675 E16.61815
G1 X121.462 Y75.889 E16.64129
G1 X122.083 Y76.115 E16.66327
G1 X124.082 Y76.885 E16.73452
G1 X124.399 Y77.016 E16.74593
G1 X125.103 Y77.339 E16.77169
G1 X126.912 Y78.253 E16.8391
G1 X127.654 Y78.644 E16.867
G1 X128.151 Y78.924 E16.88597
G1 X128.689 Y79.256 E16.907
G1 X130.729 Y80.585 E16.98798
G1 X131.557 Y81.186 E17.02201
G1 X133.233 Y82.537 E17.09361
G1 X133.809 Y83.018 E17.11857
G1 X134.329 Y83.484 E17.14179
G1 X134.818 Y83.955 E17.16437
G1 X135.938 Y85.075 E17.21705
G1 X136.462 Y85.614 E17.24206
G1 X136.828 Y86.012 E17.26004
G1 X137.289 Y86.55 E17.28361
G1 X138.354 Y87.865 E17.33989
G1 X138.849 Y88.494 E17.36651
G1 X139.293 Y89.104 E17.3916
G1 X139.899 Y90.006 E17.42775
G1 X140.908 Y91.575 E17.48979
G1 X141.361 Y92.354 E17.51976
G1 X141.823 Y93.237 E17.55291
G1 X142.642 Y94.862 E17.61343
G1 X143.001 Y95.658 E17.64248
G1 X143.387 Y96.621 E17.67698
G1 X144.067 Y98.418 E17.74089
G1 X144.363 Y99.329 E17.77275
G1 X144.935 Y101.426 E17.84504
G1 X145.114 Y102.133 E17.8693
G1 X145.272 Y102.868 E17.8943
G1 X145.401 Y103.611 E17.91938
G1 X145.625 Y105.022 E17.9669
G1 X145.745 Y105.852 E17.99479
G1 X145.808 Y106.393 E18.01291
G1 X145.853 Y106.978 E18.03242
G1 X145.974 Y109.322 E18.11049
G1 X145.988 Y110.137 E18.1376
G1 X145.976 Y110.638 E18.15427
G1 X145.873 Y112.697 E18.22284
G1 X145.826 Y113.392 E18.24601
G1 X145.753 Y114.101 E18.26971
G1 X145.657 Y114.777 E18.29242
G1 X145.394 Y116.423 E18.34786
G1 X145.278 Y117.095 E18.37054
