;FLAVOR:Marlin
;TIME:3068
;Filament used: 1.77615m
;Layer height: 0.2
;MINX:87.886
;MINY:87.386
;MINZ:0.2
;MAXX:147.114
;MAXY:147.614
;MAXZ:15
;TARGET_MACHINE.NAME:Creality Ender-3
;Generated with Cura_SteamEngine 5.6.0
M140 S50
M105
M190 S50
M104 S200
M105
M109 S200
M82 ;absolute extrusion mode
; Ender 3 Custom Start G-code
G92 E0 ; Reset Extruder
G28 ; Home all axes
G29 ; Auto bed-level
G1 Z2.0 F3000 ; Move Z Axis up little to prevent scratching of Heat Bed
G1 X0.1 Y20 Z0.3 F5000.0 ; Move to start position
G1 X0.1 Y200.0 Z0.3 F1500.0 E15 ; Draw the first line
G1 X0.4 Y200.0 Z0.3 F5000.0 ; Move to side a little
G1 X0.4 Y20 Z0.3 F1500.0 E30 ; Draw the second line
G92 E0 ; Reset Extruder
G1 Z2.0 F3000 ; Move Z Axis up little to prevent scratching of Heat Bed
G1 X5 Y20 Z0.3 F5000.0 ; Move over to prevent blob squish
G92 E0
G92 E0
G1 F2700 E-5
;LAYER_COUNT:75
;LAYER:0
M107
G0 F6000 X91.517 Y90.875 Z0.2
;TYPE:SKIRT
G1 F2700 E0
G1 F1200 X92.18 Y90.262 E0.03003
G1 X93.018 Y89.616 E0.06522
G1 X94.109 Y88.945 E0.10783
G1 X94.515 Y88.729 E0.12312
G1 X95.395 Y88.311 E0.15552
G1 X96.308 Y87.973 E0.1879
G1 X97.241 Y87.719 E0.22007
G1 X98.01 Y87.574 E0.24609
G1 X98.397 Y87.515 E0.25911
G1 X99.734 Y87.401 E0.30374
G1 X100.515 Y87.387 E0.32972
G1 X129.407 Y87.386 E1.29068
G1 X130.31 Y87.4 E1.32071
G1 X131.293 Y87.462 E1.35347
G1 X132.487 Y87.659 E1.39372
G1 X132.824 Y87.735 E1.40521
G1 X133.764 Y87.995 E1.43765
G1 X134.676 Y88.338 E1.47006
G1 X135.587 Y88.776 E1.50368
G1 X135.926 Y88.96 E1.51651
G1 X136.776 Y89.472 E1.54951
G1 X137.574 Y90.058 E1.58244
G1 X138.545 Y90.938 E1.62603
G1 X138.796 Y91.196 E1.638
G1 X139.448 Y91.938 E1.67085
G1 X140.208 Y93.008 E1.7145
G1 X140.36 Y93.253 E1.72409
G1 X140.836 Y94.104 E1.75652
G1 X141.22 Y94.957 E1.78764
G1 X141.482 Y95.683 E1.81331
G1 X141.593 Y96.032 E1.82549
G1 X141.83 Y96.903 E1.85551
G1 X141.945 Y97.471 E1.87479
G1 X142.355 Y99.83 E1.95442
G1 X142.867 Y102.351 E2.03998
G1 X143.421 Y104.751 E2.12191
G1 X144.063 Y107.201 E2.20615
G1 X144.777 Y109.639 E2.29064
G1 X145.557 Y112.051 E2.37495
G1 X146.412 Y114.469 E2.46026
G1 X146.612 Y115.088 E2.48189
G1 X146.866 Y116.076 E2.51582
G1 X147.021 Y117.006 E2.54718
G1 X147.101 Y118.166 E2.58586
G1 X147.113 Y118.95 E2.61193
G1 X147.114 Y134.907 E3.14267
G1 X147.101 Y135.789 E3.172
G1 X147.04 Y136.768 E3.20463
G1 X146.863 Y137.888 E3.24234
G1 X146.802 Y138.172 E3.252
G1 X146.555 Y139.114 E3.28439
G1 X146.251 Y139.964 E3.31442
G1 X145.741 Y141.052 E3.35438
G1 X145.544 Y141.419 E3.36824
G1 X145.062 Y142.225 E3.39947
G1 X144.459 Y143.053 E3.43354
G1 X143.567 Y144.04 E3.47779
G1 X143.325 Y144.276 E3.48903
G1 X142.651 Y144.877 E3.51907
G1 X141.496 Y145.706 E3.56635
G1 X141.248 Y145.86 E3.57606
G1 X140.398 Y146.336 E3.60847
G1 X139.515 Y146.733 E3.64067
G1 X138.784 Y146.993 E3.66647
G1 X138.457 Y147.096 E3.67787
G1 X137.515 Y147.347 E3.7103
G1 X136.545 Y147.514 E3.74304
G1 X135.334 Y147.601 E3.78342
G1 X134.55 Y147.613 E3.8095
G1 X129.593 Y147.614 E3.97437
G1 X128.711 Y147.601 E4.00371
G1 X127.73 Y147.54 E4.0364
G1 X126.589 Y147.358 E4.07483
G1 X126.304 Y147.296 E4.08453
G1 X125.396 Y147.056 E4.11576
G1 X124.451 Y146.716 E4.14917
G1 X123.696 Y146.37 E4.17679
G1 X120.782 Y144.899 E4.28536
G1 X118.518 Y143.842 E4.36846
G1 X116.207 Y142.841 E4.45223
G1 X113.874 Y141.907 E4.53581
G1 X111.522 Y141.043 E4.61915
G1 X109.111 Y140.234 E4.70373
G1 X106.719 Y139.505 E4.78691
G1 X104.284 Y138.837 E4.87089
G1 X101.869 Y138.25 E4.95355
G1 X97.849 Y137.422 E5.09006
G1 X96.469 Y137.076 E5.13738
G1 X96.128 Y136.965 E5.14931
G1 X95.218 Y136.622 E5.18165
G1 X94.403 Y136.233 E5.21169
G1 X93.678 Y135.816 E5.23951
G1 X93.431 Y135.66 E5.24922
G1 X92.622 Y135.094 E5.28206
G1 X91.665 Y134.267 E5.32413
G1 X91.419 Y134.025 E5.33561
G1 X90.755 Y133.312 E5.36801
G1 X90.174 Y132.565 E5.39949
G1 X89.446 Y131.393 E5.44538
G1 X89.228 Y130.984 E5.46079
G1 X88.81 Y130.103 E5.49323
G1 X88.472 Y129.19 E5.52561
G1 X88.232 Y128.32 E5.55562
G1 X88.074 Y127.486 E5.58386
G1 X88.015 Y127.098 E5.59691
G1 X87.901 Y125.754 E5.64177
G1 X87.887 Y124.954 E5.66838
G1 X87.886 Y100.009 E6.49806
G1 X87.899 Y99.143 E6.52686
G1 X87.958 Y98.17 E6.55929
G1 X88.099 Y97.237 E6.59067
G1 X88.425 Y95.967 E6.63428
G1 X88.532 Y95.638 E6.64579
G1 X88.875 Y94.728 E6.67813
G1 X89.277 Y93.885 E6.7092
G1 X89.658 Y93.223 E6.7346
G1 X89.819 Y92.966 E6.74469
G1 X90.372 Y92.166 E6.77703
G1 X90.947 Y91.469 E6.80709
G1 X91.517 Y90.875 E6.83447
G0 F6000 X91.789 Y91.169
G1 F1200 X92.452 Y90.556 E6.8645
G1 X93.228 Y89.957 E6.8971
G1 X94.298 Y89.298 E6.9389
G1 X94.687 Y89.09 E6.95357
G1 X95.534 Y88.686 E6.98478
G1 X96.414 Y88.359 E7.01601
G1 X97.316 Y88.112 E7.04711
G1 X98.07 Y87.969 E7.07264
G1 X98.431 Y87.914 E7.08478
G1 X99.768 Y87.8 E7.12941
G1 X100.515 Y87.787 E7.15426
G1 X129.401 Y87.786 E8.11502
G1 X130.285 Y87.799 E8.14442
G1 X131.228 Y87.857 E8.17584
G1 X132.422 Y88.054 E8.21609
G1 X132.718 Y88.121 E8.22619
G1 X133.624 Y88.37 E8.25744
G1 X134.503 Y88.699 E8.28866
G1 X135.396 Y89.128 E8.32161
G1 X135.735 Y89.312 E8.33444
G1 X136.54 Y89.795 E8.36566
G1 X137.305 Y90.354 E8.39717
G1 X138.276 Y91.234 E8.44076
G1 X138.496 Y91.461 E8.45127
G1 X139.122 Y92.17 E8.48273
G1 X139.868 Y93.219 E8.52554
G1 X140.011 Y93.449 E8.53455
G1 X140.471 Y94.268 E8.56579
G1 X140.855 Y95.121 E8.59691
G1 X141.101 Y95.805 E8.62108
G1 X141.207 Y96.137 E8.63267
G1 X141.444 Y97.008 E8.6627
G1 X141.551 Y97.54 E8.68075
G1 X141.963 Y99.91 E8.76075
G1 X142.477 Y102.441 E8.84665
G1 X143.034 Y104.852 E8.92896
G1 X143.679 Y107.313 E9.01357
G1 X144.396 Y109.762 E9.09845
G1 X145.176 Y112.174 E9.18276
G1 X146.031 Y114.592 E9.26806
G1 X146.231 Y115.211 E9.2897
G1 X146.471 Y116.142 E9.32168
G1 X146.626 Y117.072 E9.35304
G1 X146.701 Y118.172 E9.38971
G1 X146.713 Y118.95 E9.41559
G1 X146.714 Y134.901 E9.94612
G1 X146.702 Y135.765 E9.97486
G1 X146.645 Y136.706 E10.00621
G1 X146.472 Y137.804 E10.04318
G1 X146.415 Y138.071 E10.05226
G1 X146.178 Y138.979 E10.08348
G1 X145.874 Y139.829 E10.1135
G1 X145.388 Y140.863 E10.1515
G1 X145.2 Y141.214 E10.16475
G1 X144.738 Y141.99 E10.19478
G1 X144.162 Y142.785 E10.22744
G1 X143.287 Y143.754 E10.27086
G1 X143.059 Y143.977 E10.28147
G1 X142.385 Y144.578 E10.3115
G1 X141.285 Y145.366 E10.35651
G1 X141.052 Y145.511 E10.36564
G1 X140.233 Y145.971 E10.39688
G1 X139.38 Y146.356 E10.42801
G1 X138.663 Y146.612 E10.45333
G1 X138.353 Y146.71 E10.46414
G1 X137.446 Y146.953 E10.49537
G1 X136.516 Y147.115 E10.52677
G1 X135.328 Y147.201 E10.56639
G1 X134.55 Y147.213 E10.59227
G1 X129.599 Y147.214 E10.75694
G1 X128.735 Y147.202 E10.78568
G1 X127.793 Y147.145 E10.81706
G1 X126.674 Y146.967 E10.85475
G1 X126.406 Y146.909 E10.86387
G1 X125.498 Y146.669 E10.89511
G1 X124.617 Y146.352 E10.92625
G1 X123.876 Y146.013 E10.95335
G1 X120.962 Y144.542 E11.06192
G1 X118.677 Y143.475 E11.1458
G1 X116.366 Y142.474 E11.22956
G1 X114.023 Y141.536 E11.3135
G1 X111.649 Y140.664 E11.39762
G1 X109.228 Y139.851 E11.48256
G1 X106.836 Y139.122 E11.56573
G1 X104.379 Y138.448 E11.65047
G1 X101.961 Y137.86 E11.73324
G1 X97.946 Y137.034 E11.86958
G1 X96.592 Y136.695 E11.916
G1 X96.268 Y136.59 E11.92733
G1 X95.39 Y136.261 E11.95851
G1 X94.575 Y135.872 E11.98855
G1 X93.891 Y135.477 E12.01482
G1 X93.66 Y135.332 E12.02389
G1 X92.884 Y134.791 E12.05536
G1 X91.927 Y133.964 E12.09742
G1 X91.711 Y133.752 E12.10749
G1 X91.071 Y133.066 E12.13869
G1 X90.49 Y132.319 E12.17017
G1 X89.799 Y131.204 E12.2138
G1 X89.589 Y130.812 E12.22859
G1 X89.185 Y129.964 E12.25983
G1 X88.858 Y129.084 E12.29106
G1 X88.618 Y128.214 E12.32107
G1 X88.469 Y127.426 E12.34775
G1 X88.414 Y127.064 E12.35992
G1 X88.3 Y125.72 E12.40479
G1 X88.287 Y124.954 E12.43027
G1 X88.286 Y100.015 E13.25974
G1 X88.298 Y99.167 E13.28795
G1 X88.354 Y98.229 E13.3192
G1 X88.487 Y97.336 E13.34923
G1 X88.806 Y96.09 E13.39201
G1 X88.907 Y95.778 E13.40292
G1 X89.236 Y94.9 E13.4341
G1 X89.624 Y94.084 E13.46416
G1 X89.998 Y93.434 E13.4891
G1 X90.148 Y93.193 E13.49854
G1 X90.681 Y92.421 E13.52974
G1 X91.256 Y91.724 E13.55979
G1 X91.789 Y91.169 E13.58539
G0 F6000 X92.061 Y91.463
G1 F1200 X92.724 Y90.85 E13.61542
G1 X93.438 Y90.298 E13.64544
G1 X94.508 Y89.639 E13.68723
G1 X94.86 Y89.451 E13.70051
G1 X95.674 Y89.061 E13.73053
G1 X96.52 Y88.745 E13.76056
G1 X97.391 Y88.505 E13.79061
G1 X98.13 Y88.364 E13.81564
G1 X98.465 Y88.313 E13.82691
G1 X99.802 Y88.199 E13.87154
G1 X100.515 Y88.187 E13.89525
G1 X129.395 Y88.186 E14.85581
G1 X130.261 Y88.198 E14.88461
G1 X131.163 Y88.252 E14.91467
G1 X132.357 Y88.449 E14.95492
G1 X132.613 Y88.507 E14.96365
G1 X133.484 Y88.745 E14.99368
G1 X134.33 Y89.06 E15.0237
G1 X135.206 Y89.48 E15.05602
G1 X135.53 Y89.655 E15.06826
G1 X136.305 Y90.119 E15.09831
G1 X137.036 Y90.65 E15.12836
G1 X138.007 Y91.53 E15.17194
G1 X138.197 Y91.726 E15.18102
G1 X138.796 Y92.402 E15.21106
G1 X139.529 Y93.431 E15.25308
G1 X139.663 Y93.646 E15.26151
G1 X140.107 Y94.433 E15.29156
G1 X140.479 Y95.256 E15.3216
G1 X140.72 Y95.927 E15.34532
G1 X140.821 Y96.242 E15.35632
G1 X141.058 Y97.113 E15.38634
G1 X141.157 Y97.608 E15.40313
G1 X141.571 Y99.99 E15.48354
G1 X142.087 Y102.531 E15.56978
G1 X142.647 Y104.953 E15.65246
G1 X143.295 Y107.425 E15.73746
G1 X144.015 Y109.885 E15.82271
G1 X144.795 Y112.297 E15.90703
G1 X145.65 Y114.715 E15.99233
G1 X145.85 Y115.334 E16.01397
G1 X146.077 Y116.208 E16.044
G1 X146.227 Y117.099 E16.07405
G1 X146.301 Y118.178 E16.11002
G1 X146.313 Y118.95 E16.1357
G1 X146.314 Y134.896 E16.66607
G1 X146.303 Y135.742 E16.69421
G1 X146.25 Y136.644 E16.72426
G1 X146.081 Y137.721 E16.76052
G1 X146.028 Y137.97 E16.76899
G1 X145.801 Y138.844 E16.79902
G1 X145.497 Y139.694 E16.82905
G1 X145.036 Y140.674 E16.86507
G1 X144.856 Y141.009 E16.87772
G1 X144.394 Y141.785 E16.90776
G1 X143.865 Y142.517 E16.9378
G1 X142.99 Y143.486 E16.98122
G1 X142.793 Y143.678 E16.99037
G1 X142.119 Y144.279 E17.0204
G1 X141.073 Y145.027 E17.06317
G1 X140.855 Y145.163 E17.07172
G1 X140.068 Y145.607 E17.10177
G1 X139.245 Y145.979 E17.13181
G1 X138.542 Y146.231 E17.15665
G1 X138.249 Y146.324 E17.16688
G1 X137.377 Y146.559 E17.19691
G1 X136.487 Y146.716 E17.22697
G1 X135.322 Y146.801 E17.26582
G1 X134.55 Y146.813 E17.2915
G1 X129.604 Y146.814 E17.45601
G1 X128.758 Y146.803 E17.48415
G1 X127.856 Y146.75 E17.5142
G1 X126.758 Y146.576 E17.55118
G1 X126.507 Y146.522 E17.55972
G1 X125.633 Y146.293 E17.58977
G1 X124.783 Y145.988 E17.6198
G1 X124.056 Y145.656 E17.64639
G1 X121.142 Y144.185 E17.75495
G1 X118.836 Y143.108 E17.8396
G1 X116.525 Y142.107 E17.92337
G1 X114.172 Y141.165 E18.00767
G1 X111.776 Y140.285 E18.09257
G1 X109.345 Y139.468 E18.17786
G1 X106.953 Y138.739 E18.26104
G1 X104.474 Y138.059 E18.34653
G1 X102.053 Y137.47 E18.4294
G1 X98.027 Y136.642 E18.56611
G1 X96.715 Y136.314 E18.61109
G1 X96.408 Y136.215 E18.62182
G1 X95.562 Y135.9 E18.65185
G1 X94.747 Y135.511 E18.68188
G1 X94.104 Y135.139 E18.70659
G1 X93.888 Y135.003 E18.71508
G1 X93.146 Y134.488 E18.74512
G1 X92.189 Y133.661 E18.78719
G1 X92.003 Y133.479 E18.79584
G1 X91.386 Y132.82 E18.82587
G1 X90.83 Y132.108 E18.85592
G1 X90.139 Y130.993 E18.89955
G1 X89.95 Y130.639 E18.91289
G1 X89.56 Y129.824 E18.94294
G1 X89.244 Y128.978 E18.97298
G1 X89.004 Y128.108 E19.003
G1 X88.864 Y127.366 E19.02811
G1 X88.813 Y127.03 E19.03942
G1 X88.699 Y125.686 E19.08428
G1 X88.687 Y124.954 E19.10863
G1 X88.686 Y100.02 E19.93794
G1 X88.697 Y99.19 E19.96554
G1 X88.75 Y98.288 E19.9956
G1 X88.883 Y97.395 E20.02563
G1 X89.187 Y96.213 E20.06622
G1 X89.282 Y95.918 E20.07653
G1 X89.597 Y95.072 E20.10655
G1 X89.985 Y94.256 E20.1366
G1 X90.337 Y93.646 E20.16003
G1 X90.478 Y93.42 E20.16889
G1 X90.99 Y92.676 E20.19893
G1 X91.565 Y91.979 E20.22898
G1 X92.061 Y91.463 E20.25279
G1 F2700 E15.25279
;MESH:Clip.STL
G0 F6000 X99.094 Y98.738
G0 X129.071 Y135.429
;TYPE:WALL-INNER
G1 F2700 E20.25279
G1 F1200 X134.929 Y135.43 E20.44762
G1 F1191.1 X134.927 Y127.548 E20.71175
G1 F1215.2 X134.939 Y127.169 E20.7242
G1 F1230.8 X134.931 Y126.563 E20.74385
G1 F1203 X134.93 Y118.571 E21.009
G1 F1200 X134.07 Y118.57 E21.03761
G1 X134.078 Y125.484 E21.26757
G1 X134.288 Y125.822 E21.2808
G1 F1203 X134.457 Y126.233 E21.29555
G1 F1206 X134.538 Y126.605 E21.30815
G1 F1233.9 X134.56 Y127.074 E21.32333
G1 F1221.4 X134.523 Y127.513 E21.33773
G1 F1191.1 X134.408 Y127.902 E21.35132
G1 F1200 X134.198 Y128.34 E21.36748
G1 X133.937 Y128.697 E21.38219
G1 X133.624 Y128.998 E21.39663
G1 X133.259 Y129.248 E21.41134
G1 X132.857 Y129.427 E21.42598
G1 X132.441 Y129.536 E21.44028
G1 X132.001 Y129.572 E21.45497
G1 X131.559 Y129.536 E21.46972
G1 X131.143 Y129.427 E21.48402
G1 X130.741 Y129.248 E21.49866
G1 X130.376 Y128.999 E21.51335
G1 X130.062 Y128.698 E21.52782
G1 X129.804 Y128.344 E21.54239
G1 X129.604 Y127.943 E21.55729
G1 F1197 X129.474 Y127.483 E21.57323
G1 F1221.4 X129.443 Y127.146 E21.58429
G1 F1230.8 X129.462 Y126.605 E21.60185
G1 F1209.1 X129.543 Y126.233 E21.61441
G1 F1206 X129.71 Y125.823 E21.62906
G1 F1203 X129.924 Y125.482 E21.64242
G1 F1200 X129.93 Y99.57 E22.50426
G1 X100.07 Y99.571 E23.4974
G1 X100.072 Y125.429 E24.35745
G1 X100.93 Y125.429 E24.38598
G1 X100.93 Y103.453 E25.11691
G1 X100.965 Y103.013 E25.13159
G1 X101.095 Y102.508 E25.14893
G1 X101.262 Y102.099 E25.16363
G1 X101.543 Y101.658 E25.18102
G1 X101.827 Y101.327 E25.19552
G1 X102.232 Y100.989 E25.21307
G1 X102.562 Y100.786 E25.22596
G1 X103.008 Y100.595 E25.24209
G1 X103.511 Y100.466 E25.25936
G1 X103.954 Y100.431 E25.27414
G1 X126.047 Y100.43 E26.00896
G1 X126.487 Y100.465 E26.02364
G1 X126.992 Y100.595 E26.04098
G1 X127.401 Y100.762 E26.05568
G1 X127.842 Y101.043 E26.07307
G1 X128.173 Y101.327 E26.08758
G1 X128.51 Y101.732 E26.1051
G1 X128.74 Y102.104 E26.11965
G1 X128.931 Y102.59 E26.13701
G1 X129.041 Y103.071 E26.15343
G1 X129.069 Y103.454 E26.1662
G1 F1206 X129.069 Y126.563 E26.93096
G1 F1233.9 X129.06 Y127.074 E26.9475
G1 F1224.5 X129.072 Y127.507 E26.96161
G1 F1197 X129.071 Y135.429 E27.22576
G0 F6000 X128.855 Y135.795
;TYPE:WALL-OUTER
G1 F1200 X129.022 Y135.829 E27.23143
G1 X134.981 Y135.83 E27.42963
G1 X135.153 Y135.791 E27.43549
G1 X135.295 Y135.645 E27.44227
G1 X135.329 Y135.478 E27.44793
G1 X135.33 Y118.519 E28.01199
G1 X135.292 Y118.347 E28.01785
G1 X135.145 Y118.205 E28.02465
G1 X134.978 Y118.171 E28.03032
G1 X134.02 Y118.171 E28.06218
G1 X133.856 Y118.203 E28.06774
G1 X133.706 Y118.35 E28.07472
G1 X133.67 Y118.517 E28.08041
G1 X133.672 Y125.589 E28.31562
G1 X133.939 Y126.023 E28.33257
G1 X134.069 Y126.341 E28.344
G1 X134.149 Y126.691 E28.35594
G1 X134.17 Y127.074 E28.36869
G1 X134.126 Y127.444 E28.38109
G1 X134.024 Y127.786 E28.39296
G1 X133.843 Y128.147 E28.40639
G1 X133.622 Y128.446 E28.41876
G1 X133.355 Y128.698 E28.43097
G1 X133.078 Y128.887 E28.44212
G1 X132.708 Y129.052 E28.45559
G1 X132.355 Y129.142 E28.46771
G1 X131.982 Y129.172 E28.48016
G1 X131.612 Y129.136 E28.49252
G1 X131.261 Y129.041 E28.50462
G1 X130.922 Y128.887 E28.517
G1 X130.619 Y128.677 E28.52926
G1 X130.378 Y128.446 E28.54036
G1 X130.14 Y128.119 E28.55382
G1 X129.976 Y127.786 E28.56616
G1 X129.873 Y127.434 E28.57836
G1 X129.831 Y127.064 E28.59075
G1 X129.851 Y126.691 E28.60317
G1 X129.931 Y126.341 E28.61511
G1 X130.061 Y126.023 E28.62654
G1 X130.33 Y125.585 E28.64363
G1 X130.33 Y99.519 E29.51059
G1 X130.292 Y99.347 E29.51645
G1 X130.145 Y99.205 E29.52325
G1 X129.977 Y99.17 E29.52896
G1 X100.019 Y99.171 E30.52536
G1 X99.856 Y99.203 E30.53089
G1 X99.706 Y99.35 E30.53787
G1 X99.67 Y99.516 E30.54352
G1 X99.672 Y125.482 E31.40716
G1 X99.703 Y125.643 E31.41261
G1 X99.85 Y125.794 E31.41962
G1 X100.017 Y125.829 E31.42529
G1 X100.981 Y125.829 E31.45736
G1 X101.143 Y125.797 E31.46285
G1 X101.294 Y125.65 E31.46986
G1 X101.33 Y125.484 E31.47551
G1 X101.329 Y103.485 E32.2072
G1 X101.365 Y103.065 E32.22122
G1 X101.465 Y102.66 E32.23509
G1 X101.627 Y102.272 E32.24908
G1 X101.848 Y101.917 E32.26298
G1 X102.11 Y101.61 E32.27641
G1 X102.442 Y101.33 E32.29085
G1 X102.801 Y101.112 E32.30482
G1 X103.186 Y100.957 E32.31863
G1 X103.58 Y100.86 E32.33212
G1 X103.983 Y100.83 E32.34556
G1 X126.015 Y100.829 E33.07835
G1 X126.435 Y100.865 E33.09237
G1 X126.84 Y100.965 E33.10625
