;FLAVOR:Marlin
;TIME:9681
;Filament used: 6.73177m
;Layer height: 0.2
;MINX:42.651
;MINY:73.791
;MINZ:0.2
;MAXX:192.35
;MAXY:151.9
;MAXZ:15.8
;TARGET_MACHINE.NAME:Creality Ender-3
;Generated with Cura_SteamEngine 5.7.1
M140 S50
M105
M190 S50
M104 S200
M105
M109 S200
M82 ;absolute extrusion mode
; Ender 3 Custom Start G-code
G92 E0 ; Reset Extruder
G28 ; Home all axes
G29 ; Auto bed-level
G1 Z2.0 F3000 ; Move Z Axis up little to prevent scratching of Heat Bed
G1 X0.1 Y20 Z0.3 F5000.0 ; Move to start position
G1 X0.1 Y200.0 Z0.3 F1500.0 E15 ; Draw the first line
G1 X0.4 Y200.0 Z0.3 F5000.0 ; Move to side a little
G1 X0.4 Y20 Z0.3 F1500.0 E30 ; Draw the second line
G92 E0 ; Reset Extruder
G1 Z2.0 F3000 ; Move Z Axis up little to prevent scratching of Heat Bed
G1 X5 Y20 Z0.3 F5000.0 ; Move over to prevent blob squish
G92 E0
G92 E0
G1 F2700 E-5
;LAYER_COUNT:79
;LAYER:0
M107
G0 F6000 X60.309 Y76.371 Z0.2
;TYPE:SKIRT
G1 F2700 E0
G1 F1200 X61.124 Y75.838 E0.03239
G1 X61.982 Y75.378 E0.06477
G1 X62.812 Y75.022 E0.09481
G1 X63.663 Y74.737 E0.12466
G1 X64.935 Y74.369 E0.1687
G1 X65.635 Y74.184 E0.19278
G1 X66.588 Y73.979 E0.2252
G1 X67.554 Y73.859 E0.25758
G1 X68.457 Y73.824 E0.28763
G1 X69.5 Y73.878 E0.32237
G1 X70.426 Y74.008 E0.35347
G1 X71.228 Y74.186 E0.3808
G1 X72.311 Y74.472 E0.41805
G1 X73.312 Y74.765 E0.45274
G1 X74.201 Y75.074 E0.48405
G1 X75.282 Y75.57 E0.5236
G1 X77.083 Y76.538 E0.59161
G1 X79.37 Y77.703 E0.67698
G1 X81.588 Y78.754 E0.75861
G1 X83.928 Y79.783 E0.84363
G1 X86.223 Y80.717 E0.92604
G1 X88.587 Y81.602 E1.01
G1 X91.001 Y82.427 E1.09485
G1 X93.392 Y83.171 E1.17813
G1 X95.829 Y83.853 E1.2623
G1 X98.258 Y84.459 E1.34557
G1 X100.729 Y85.002 E1.42971
G1 X103.185 Y85.472 E1.51288
G1 X105.652 Y85.868 E1.59599
G1 X108.2 Y86.205 E1.68147
G1 X110.665 Y86.46 E1.7639
G1 X113.149 Y86.648 E1.84675
G1 X115.729 Y86.769 E1.93266
G1 X118.223 Y86.815 E2.01562
G1 X120.691 Y86.791 E2.09771
G1 X123.283 Y86.693 E2.18398
G1 X125.766 Y86.528 E2.26675
G1 X128.232 Y86.293 E2.34914
G1 X130.756 Y85.982 E2.43372
G1 X133.259 Y85.599 E2.51794
G1 X135.726 Y85.154 E2.60132
G1 X138.175 Y84.637 E2.68457
G1 X140.653 Y84.041 E2.76934
G1 X143.025 Y83.4 E2.85106
G1 X145.484 Y82.658 E2.93649
G1 X147.865 Y81.867 E3.01994
G1 X150.266 Y80.993 E3.10492
G1 X152.545 Y80.089 E3.18647
G1 X154.893 Y79.08 E3.27147
G1 X157.176 Y78.022 E3.35516
G1 X159.442 Y76.894 E3.43935
G1 X161.912 Y75.578 E3.53243
G1 X162.801 Y75.157 E3.56515
G1 X163.929 Y74.754 E3.60499
G1 X164.989 Y74.444 E3.64172
G1 X166.095 Y74.148 E3.6798
G1 X167.048 Y73.944 E3.71222
G1 X168.013 Y73.825 E3.74456
G1 X168.915 Y73.791 E3.77458
G1 X169.959 Y73.846 E3.80935
G1 X170.885 Y73.978 E3.84046
G1 X171.676 Y74.154 E3.86741
G1 X172.534 Y74.381 E3.89693
G1 X173.737 Y74.731 E3.9386
G1 X174.674 Y75.054 E3.97157
G1 X175.564 Y75.453 E4.00401
G1 X176.413 Y75.929 E4.03638
G1 X177.218 Y76.477 E4.06877
G1 X177.941 Y77.068 E4.09983
G1 X178.479 Y77.581 E4.12455
G1 X179.124 Y78.244 E4.15532
G1 X179.938 Y79.119 E4.19507
G1 X180.545 Y79.834 E4.22626
G1 X181.129 Y80.657 E4.25983
G1 X181.584 Y81.437 E4.28986
G1 X181.841 Y81.956 E4.30912
G1 X182.215 Y82.762 E4.33868
G1 X183.368 Y85.159 E4.42714
G1 X184.549 Y87.447 E4.51278
G1 X185.327 Y88.875 E4.56687
G1 X185.753 Y89.753 E4.59933
G1 X186.098 Y90.663 E4.6317
G1 X186.345 Y91.531 E4.66171
G1 X186.462 Y92.075 E4.68022
G1 X186.924 Y94.535 E4.76347
G1 X187.466 Y97.045 E4.84888
G1 X188.057 Y99.443 E4.93102
G1 X188.733 Y101.895 E5.01562
G1 X189.473 Y104.301 E5.09934
G1 X190.269 Y106.657 E5.18205
G1 X191.378 Y109.639 E5.28787
G1 X191.697 Y110.659 E5.32342
G1 X191.921 Y111.523 E5.35311
G1 X192.122 Y112.473 E5.3854
G1 X192.231 Y113.334 E5.41427
G1 X192.304 Y114.202 E5.44324
G1 X192.339 Y114.945 E5.46798
G1 X192.35 Y115.798 E5.49635
G1 X192.348 Y135.392 E6.14805
G1 X192.331 Y136.251 E6.17663
G1 X192.293 Y136.978 E6.20084
G1 X192.232 Y137.68 E6.22428
G1 X192.052 Y138.9 E6.26529
G1 X191.89 Y139.629 E6.29013
G1 X191.747 Y140.186 E6.30926
G1 X191.408 Y141.265 E6.34688
G1 X191.09 Y142.073 E6.37576
G1 X190.862 Y142.597 E6.39476
G1 X190.358 Y143.603 E6.43219
G1 X189.967 Y144.265 E6.45776
G1 X189.649 Y144.764 E6.47744
G1 X188.992 Y145.683 E6.51501
G1 X188.495 Y146.286 E6.541
G1 X188.1 Y146.735 E6.56089
G1 X187.475 Y147.386 E6.59091
G1 X186.961 Y147.85 E6.61394
G1 X186.331 Y148.38 E6.64132
G1 X185.334 Y149.123 E6.68268
G1 X184.668 Y149.546 E6.70892
G1 X184.19 Y149.827 E6.72736
G1 X183.22 Y150.334 E6.76377
G1 X182.448 Y150.673 E6.79181
G1 X181.909 Y150.886 E6.81109
G1 X180.753 Y151.268 E6.85158
G1 X180.081 Y151.438 E6.87463
G1 X179.521 Y151.565 E6.89373
G1 X178.366 Y151.758 E6.93268
G1 X177.522 Y151.837 E6.96087
G1 X176.862 Y151.877 E6.98287
G1 X176.23 Y151.895 E7.0039
G1 X61.347 Y151.9 E10.82492
G1 X60.477 Y151.889 E10.85386
G1 X59.989 Y151.87 E10.8701
G1 X59.148 Y151.813 E10.89814
G1 X58.5 Y151.753 E10.91978
G1 X57.295 Y151.57 E10.96032
G1 X56.531 Y151.4 E10.98635
G1 X55.765 Y151.206 E11.01263
G1 X54.48 Y150.791 E11.05755
G1 X53.629 Y150.448 E11.08806
G1 X53.045 Y150.194 E11.10925
G1 X51.925 Y149.626 E11.15101
G1 X51.21 Y149.2 E11.1787
G1 X50.645 Y148.841 E11.20096
G1 X49.653 Y148.129 E11.24157
G1 X48.952 Y147.551 E11.27179
G1 X48.402 Y147.067 E11.29616
G1 X47.52 Y146.19 E11.33753
G1 X46.97 Y145.562 E11.36529
G1 X46.499 Y144.993 E11.38986
G1 X45.829 Y144.087 E11.42734
G1 X45.346 Y143.332 E11.45715
G1 X44.938 Y142.644 E11.48375
G1 X44.371 Y141.543 E11.52494
G1 X44.023 Y140.737 E11.55414
G1 X43.761 Y140.074 E11.57786
G1 X43.397 Y138.978 E11.61627
G1 X43.183 Y138.152 E11.64465
G1 X43.005 Y137.364 E11.67152
G1 X42.809 Y136.176 E11.71156
G1 X42.738 Y135.431 E11.73645
G1 X42.682 Y134.604 E11.76402
G1 X42.66 Y134.072 E11.78173
G1 X42.651 Y133.514 E11.80029
G1 X42.652 Y117.602 E12.32953
G1 X42.67 Y116.717 E12.35897
G1 X42.707 Y116.005 E12.38268
G1 X42.794 Y115.006 E12.41604
G1 X42.977 Y113.768 E12.45766
G1 X43.174 Y112.886 E12.48772
G1 X43.362 Y112.157 E12.51276
G1 X43.747 Y110.96 E12.55458
G1 X44.056 Y110.185 E12.58233
G1 X44.458 Y109.264 E12.61575
G1 X44.67 Y108.809 E12.63245
G1 X45.702 Y106.508 E12.71632
G1 X46.673 Y104.172 E12.80046
G1 X47.572 Y101.818 E12.88427
G1 X48.396 Y99.463 E12.96726
G1 X49.164 Y97.056 E13.05129
G1 X49.867 Y94.615 E13.13578
G1 X50.443 Y92.389 E13.21226
G1 X50.671 Y91.46 E13.24407
G1 X50.946 Y90.525 E13.27649
G1 X51.275 Y89.684 E13.30652
G1 X51.858 Y88.545 E13.34908
G1 X53.102 Y86.442 E13.43035
G1 X54.326 Y84.245 E13.51399
G1 X55.757 Y81.497 E13.61704
G1 X56.256 Y80.641 E13.65
G1 X56.817 Y79.846 E13.68236
G1 X57.4 Y79.156 E13.71241
G1 X57.961 Y78.548 E13.73992
G1 X58.823 Y77.654 E13.78123
G1 X59.545 Y76.972 E13.81426
G1 X60.309 Y76.371 E13.84659
G0 F6000 X60.529 Y76.705
G1 F1200 X61.313 Y76.19 E13.87779
G1 X62.14 Y75.746 E13.90901
G1 X62.97 Y75.39 E13.93905
G1 X63.774 Y75.121 E13.96724
G1 X65.037 Y74.756 E14.01097
G1 X65.72 Y74.575 E14.03447
G1 X66.638 Y74.376 E14.06571
G1 X67.569 Y74.259 E14.09692
G1 X68.472 Y74.224 E14.12698
G1 X69.444 Y74.274 E14.15935
G1 X70.37 Y74.404 E14.19045
G1 X71.126 Y74.573 E14.21622
G1 X72.199 Y74.856 E14.25313
G1 X73.181 Y75.143 E14.28715
G1 X74.034 Y75.438 E14.31717
G1 X75.095 Y75.924 E14.35599
G1 X75.993 Y76.399 E14.38978
G1 X76.901 Y76.894 E14.42417
G1 X79.188 Y78.059 E14.50954
G1 X81.427 Y79.12 E14.59195
G1 X83.767 Y80.149 E14.67697
G1 X86.083 Y81.092 E14.76014
G1 X88.458 Y81.981 E14.84448
G1 X90.872 Y82.806 E14.92933
G1 X93.273 Y83.553 E15.01297
G1 X95.732 Y84.241 E15.0979
G1 X98.172 Y84.85 E15.18154
G1 X100.643 Y85.393 E15.26569
G1 X103.112 Y85.865 E15.34929
G1 X105.6 Y86.265 E15.43311
G1 X108.148 Y86.602 E15.51859
G1 X110.63 Y86.859 E15.60158
G1 X113.13 Y87.048 E15.68497
G1 X115.71 Y87.169 E15.77088
G1 X118.22 Y87.215 E15.85437
G1 X120.706 Y87.191 E15.93706
G1 X123.298 Y87.093 E16.02333
G1 X125.793 Y86.927 E16.1065
G1 X128.283 Y86.69 E16.18969
G1 X130.805 Y86.379 E16.27421
G1 X133.33 Y85.993 E16.35917
G1 X135.797 Y85.547 E16.44255
G1 X138.269 Y85.026 E16.52658
G1 X140.747 Y84.43 E16.61135
G1 X143.141 Y83.783 E16.69383
G1 X145.611 Y83.038 E16.77964
G1 X147.991 Y82.247 E16.86305
G1 X150.403 Y81.369 E16.94843
G1 X152.703 Y80.457 E17.03072
G1 X155.051 Y79.448 E17.11572
G1 X157.344 Y78.385 E17.19978
G1 X159.629 Y77.247 E17.28468
G1 X162.084 Y75.939 E17.3772
G1 X162.936 Y75.534 E17.40858
G1 X164.064 Y75.131 E17.44842
G1 X165.092 Y74.83 E17.48405
G1 X166.179 Y74.539 E17.52147
G1 X167.097 Y74.341 E17.55271
G1 X168.028 Y74.225 E17.58391
G1 X168.93 Y74.191 E17.61394
G1 X169.903 Y74.242 E17.64634
G1 X170.829 Y74.374 E17.67745
G1 X171.574 Y74.541 E17.70285
G1 X172.422 Y74.765 E17.73202
G1 X173.607 Y75.109 E17.77306
G1 X174.511 Y75.419 E17.80484
G1 X175.369 Y75.802 E17.8361
G1 X176.188 Y76.26 E17.86731
G1 X176.965 Y76.787 E17.89853
G1 X177.665 Y77.358 E17.92858
G1 X178.192 Y77.86 E17.95279
G1 X178.831 Y78.516 E17.98324
G1 X179.633 Y79.378 E18.0224
G1 X180.24 Y80.093 E18.0536
G1 X180.783 Y80.859 E18.08483
G1 X181.238 Y81.639 E18.11486
G1 X181.478 Y82.124 E18.13286
G1 X181.852 Y82.93 E18.16241
G1 X183.013 Y85.343 E18.25148
G1 X184.198 Y87.638 E18.33738
G1 X184.967 Y89.05 E18.39086
G1 X185.379 Y89.895 E18.42213
G1 X185.713 Y90.772 E18.45334
G1 X185.96 Y91.64 E18.48336
G1 X186.069 Y92.149 E18.50067
G1 X186.533 Y94.619 E18.58426
G1 X187.078 Y97.141 E18.67008
G1 X187.671 Y99.549 E18.75256
G1 X188.348 Y102.001 E18.83717
G1 X189.094 Y104.429 E18.92165
G1 X189.894 Y106.796 E19.00475
G1 X190.996 Y109.759 E19.10989
G1 X191.31 Y110.76 E19.14479
G1 X191.53 Y111.606 E19.17386
G1 X191.725 Y112.523 E19.20504
G1 X191.832 Y113.368 E19.23337
G1 X191.904 Y114.221 E19.26184
G1 X191.939 Y114.95 E19.28612
G1 X191.95 Y115.798 E19.31433
G1 X191.948 Y135.384 E19.96576
G1 X191.932 Y136.23 E19.9939
G1 X191.895 Y136.943 E20.01765
G1 X191.836 Y137.622 E20.04032
G1 X191.661 Y138.813 E20.08035
G1 X191.502 Y139.53 E20.10478
G1 X191.365 Y140.066 E20.12318
G1 X191.026 Y141.145 E20.1608
G1 X190.723 Y141.914 E20.18829
G1 X190.504 Y142.418 E20.20657
G1 X190 Y143.424 E20.24399
G1 X189.63 Y144.05 E20.26818
G1 X189.324 Y144.531 E20.28714
G1 X188.667 Y145.45 E20.32471
G1 X188.194 Y146.022 E20.3494
G1 X187.811 Y146.458 E20.3687
G1 X187.186 Y147.109 E20.39872
G1 X186.703 Y147.544 E20.42034
G1 X186.092 Y148.059 E20.44691
G1 X185.119 Y148.785 E20.48729
G1 X184.465 Y149.201 E20.51307
G1 X184.004 Y149.473 E20.53087
G1 X183.059 Y149.968 E20.56636
G1 X182.301 Y150.301 E20.59389
G1 X181.783 Y150.506 E20.61242
G1 X180.654 Y150.88 E20.65198
G1 X179.993 Y151.048 E20.67466
G1 X179.455 Y151.17 E20.69301
G1 X178.3 Y151.363 E20.73196
G1 X177.498 Y151.438 E20.75875
G1 X176.85 Y151.477 E20.78034
G1 X176.23 Y151.495 E20.80097
G1 X61.352 Y151.5 E24.62183
G1 X60.492 Y151.489 E24.65044
G1 X60.016 Y151.471 E24.66628
G1 X59.185 Y151.415 E24.69398
G1 X58.56 Y151.357 E24.71486
G1 X57.382 Y151.179 E24.75448
G1 X56.629 Y151.012 E24.78014
G1 X55.888 Y150.825 E24.80556
G1 X54.603 Y150.41 E24.85047
G1 X53.788 Y150.081 E24.8797
G1 X53.226 Y149.837 E24.90008
G1 X52.13 Y149.282 E24.94094
G1 X51.425 Y148.862 E24.96823
G1 X50.86 Y148.503 E24.9905
G1 X49.907 Y147.82 E25.02949
G1 X49.216 Y147.251 E25.05927
G1 X48.684 Y146.783 E25.08283
G1 X47.802 Y145.906 E25.1242
G1 X47.278 Y145.307 E25.15067
G1 X46.821 Y144.755 E25.17451
G1 X46.151 Y143.849 E25.21199
G1 X45.69 Y143.128 E25.24045
G1 X45.294 Y142.461 E25.26625
G1 X44.727 Y141.36 E25.30744
G1 X44.395 Y140.59 E25.33533
G1 X44.141 Y139.948 E25.35829
G1 X43.777 Y138.852 E25.3967
G1 X43.573 Y138.064 E25.42378
G1 X43.4 Y137.299 E25.44986
G1 X43.204 Y136.111 E25.48991
G1 X43.137 Y135.404 E25.51353
G1 X43.082 Y134.587 E25.54076
G1 X43.06 Y134.065 E25.55814
G1 X43.051 Y133.514 E25.57647
G1 X43.052 Y117.61 E26.10544
G1 X43.069 Y116.738 E26.13445
G1 X43.105 Y116.04 E26.15769
G1 X43.19 Y115.064 E26.19028
G1 X43.373 Y113.826 E26.2319
G1 X43.561 Y112.986 E26.26053
G1 X43.743 Y112.279 E26.28481
G1 X44.119 Y111.108 E26.32572
G1 X44.423 Y110.345 E26.35304
G1 X44.821 Y109.433 E26.38613
G1 X45.033 Y108.978 E26.40283
G1 X46.067 Y106.672 E26.48688
G1 X47.046 Y104.315 E26.57177
G1 X47.946 Y101.961 E26.65559
G1 X48.774 Y99.595 E26.73897
G1 X49.545 Y97.178 E26.82335
G1 X50.251 Y94.726 E26.90821
G1 X50.83 Y92.489 E26.98507
G1 X51.055 Y91.572 E27.01647
G1 X51.319 Y90.671 E27.0477
G1 X51.648 Y89.83 E27.07774
G1 X52.214 Y88.728 E27.11894
G1 X53.446 Y86.646 E27.1994
G1 X54.681 Y84.43 E27.28378
G1 X56.103 Y81.698 E27.38622
G1 X56.583 Y80.871 E27.41802
G1 X57.123 Y80.104 E27.44922
G1 X57.694 Y79.427 E27.47868
G1 X58.249 Y78.826 E27.50589
G1 X59.111 Y77.932 E27.54719
G1 X59.793 Y77.286 E27.57844
G1 X60.529 Y76.705 E27.60963
G0 F6000 X60.749 Y77.039
G1 F1200 X61.503 Y76.542 E27.63966
G1 X62.298 Y76.114 E27.66969
G1 X63.128 Y75.758 E27.69973
G1 X63.885 Y75.505 E27.72628
G1 X65.14 Y75.143 E27.76972
G1 X65.806 Y74.966 E27.79264
G1 X66.688 Y74.773 E27.82267
G1 X67.584 Y74.659 E27.85271
G1 X68.487 Y74.624 E27.88277
G1 X69.389 Y74.67 E27.91281
G1 X70.283 Y74.794 E27.94283
G1 X71.024 Y74.96 E27.96808
G1 X72.087 Y75.24 E28.00464
G1 X73.05 Y75.521 E28.03801
G1 X73.903 Y75.816 E28.06803
G1 X74.908 Y76.278 E28.10482
G1 X75.802 Y76.75 E28.13844
G1 X76.719 Y77.25 E28.17318
G1 X79.006 Y78.415 E28.25855
G1 X81.266 Y79.486 E28.34173
G1 X83.606 Y80.515 E28.42675
G1 X85.943 Y81.467 E28.51068
G1 X88.318 Y82.355 E28.59502
G1 X90.753 Y83.188 E28.68061
G1 X93.154 Y83.935 E28.76424
G1 X95.635 Y84.629 E28.84993
G1 X98.086 Y85.241 E28.93395
G1 X100.557 Y85.784 E29.0181
G1 X103.045 Y86.259 E29.10235
G1 X105.548 Y86.662 E29.18667
G1 X108.096 Y86.999 E29.27215
G1 X110.595 Y87.258 E29.35572
G1 X113.111 Y87.448 E29.43964
G1 X115.691 Y87.569 E29.52554
G1 X118.217 Y87.615 E29.60957
G1 X120.721 Y87.591 E29.69286
G1 X123.313 Y87.493 E29.77913
G1 X125.82 Y87.326 E29.8627
G1 X128.334 Y87.087 E29.94669
G1 X130.854 Y86.776 E30.03114
G1 X133.401 Y86.387 E30.11684
G1 X135.868 Y85.94 E30.20023
G1 X138.363 Y85.415 E30.28503
G1 X140.841 Y84.819 E30.3698
G1 X143.255 Y84.166 E30.45297
G1 X145.737 Y83.418 E30.53919
G1 X148.117 Y82.627 E30.62261
G1 X150.54 Y81.745 E30.70837
G1 X152.861 Y80.825 E30.79141
G1 X155.209 Y79.816 E30.87641
G1 X157.512 Y78.748 E30.96085
G1 X159.816 Y77.6 E31.04646
G1 X162.256 Y76.3 E31.13842
G1 X163.071 Y75.911 E31.16845
G1 X164.177 Y75.515 E31.20753
G1 X165.195 Y75.216 E31.24282
G1 X166.264 Y74.93 E31.27962
G1 X167.147 Y74.738 E31.30968
G1 X168.043 Y74.625 E31.33971
G1 X168.945 Y74.591 E31.36973
G1 X169.847 Y74.638 E31.39978
G1 X170.741 Y74.764 E31.4298
G1 X171.472 Y74.928 E31.45472
G1 X172.31 Y75.149 E31.48355
G1 X173.495 Y75.493 E31.52459
G1 X174.349 Y75.785 E31.55461
G1 X175.175 Y76.152 E31.58467
G1 X175.964 Y76.591 E31.6147
G1 X176.712 Y77.097 E31.64474
G1 X177.412 Y77.668 E31.67478
G1 X177.905 Y78.139 E31.69746
G1 X178.538 Y78.789 E31.72764
G1 X179.328 Y79.637 E31.76618
G1 X179.914 Y80.325 E31.79624
G1 X180.437 Y81.061 E31.82627
G1 X180.892 Y81.841 E31.85631
G1 X181.115 Y82.292 E31.87304
G1 X181.489 Y83.098 E31.90259
G1 X182.658 Y85.527 E31.99225
G1 X183.847 Y87.829 E32.07843
G1 X184.608 Y89.226 E32.13134
G1 X185.005 Y90.038 E32.1614
G1 X185.328 Y90.881 E32.19143
G1 X185.575 Y91.749 E32.22144
G1 X185.676 Y92.223 E32.23756
G1 X186.142 Y94.704 E32.32152
G1 X186.688 Y97.226 E32.40735
G1 X187.285 Y99.656 E32.49057
G1 X187.963 Y102.108 E32.57519
G1 X188.715 Y104.557 E32.66039
G1 X189.519 Y106.935 E32.74389
G1 X190.614 Y109.879 E32.84836
G1 X190.923 Y110.861 E32.8826
G1 X191.139 Y111.69 E32.91109
G1 X191.328 Y112.573 E32.94112
G1 X191.433 Y113.402 E32.96892
G1 X191.504 Y114.241 E32.99692
G1 X191.539 Y114.955 E33.0207
G1 X191.55 Y115.798 E33.04874
G1 X191.548 Y135.377 E33.69994
G1 X191.533 Y136.209 E33.72762
G1 X191.497 Y136.908 E33.7509
G1 X191.44 Y137.564 E33.7728
G1 X191.265 Y138.755 E33.81284
G1 X191.114 Y139.431 E33.83587
G1 X190.983 Y139.946 E33.85355
G1 X190.644 Y141.025 E33.89116
G1 X190.356 Y141.755 E33.91727
G1 X190.146 Y142.239 E33.93481
G1 X189.642 Y143.245 E33.97224
G1 X189.292 Y143.836 E33.99508
G1 X188.999 Y144.298 E34.01328
G1 X188.342 Y145.217 E34.05085
G1 X187.894 Y145.758 E34.07421
G1 X187.522 Y146.181 E34.09295
G1 X186.897 Y146.832 E34.12297
G1 X186.445 Y147.238 E34.14317
